<?xml version="1.0" encoding="UTF-8"?>
<map version="1.5" tiledversion="1.5.0" orientation="orthogonal" renderorder="right-down" width="600" height="32" tilewidth="16" tileheight="16" infinite="0" nextlayerid="3" nextobjectid="70">
 <editorsettings>
  <export target="exemplo.json" format="json"/>
 </editorsettings>
 <tileset firstgid="1" source="Tileset.tsx"/>
 <tileset firstgid="4097" source="decorative_obj.tsx"/>
 <layer id="1" name="Camada de Tiles 1" width="600" height="32">
  <data encoding="csv">
0,0,0,0,0,0,0,0,0,0,0,0,0,0,0,0,0,0,0,0,0,0,0,0,0,0,0,0,0,0,0,0,0,0,0,0,0,0,0,0,0,0,0,0,0,0,0,0,0,0,0,0,0,0,0,0,0,0,0,0,0,0,0,0,0,0,0,0,0,0,0,0,0,0,0,0,0,0,0,0,0,0,0,0,0,0,0,0,0,0,0,0,0,0,0,0,0,0,0,0,0,0,0,0,0,0,0,0,0,4611,4612,4613,4614,4615,4616,4617,4618,4619,4620,4621,4622,4623,4624,0,0,0,0,0,0,0,0,0,0,0,0,0,0,0,0,0,0,0,0,0,0,0,0,0,0,0,0,0,0,0,0,0,4370,4371,4372,4373,4374,4375,4376,4377,4378,4379,4380,4381,4382,4383,4384,4385,4386,0,0,0,0,0,0,0,0,0,0,0,0,0,0,0,0,0,0,0,0,0,0,0,0,0,0,0,0,0,0,0,0,0,0,0,0,0,0,0,0,0,0,0,0,0,0,0,0,0,0,0,0,0,0,0,0,0,0,0,0,0,0,0,0,0,0,0,0,0,0,0,0,0,0,0,0,0,0,0,0,0,0,0,0,0,0,0,0,0,0,0,0,0,0,0,4354,4355,4356,4357,4358,4359,4360,4361,4362,4363,4364,4365,4366,4367,4368,4369,0,0,0,0,0,0,0,0,0,0,0,0,0,0,0,0,0,0,0,0,0,0,0,0,0,0,0,0,0,0,0,0,0,0,0,0,0,0,0,0,0,0,0,0,0,0,0,0,0,0,0,0,0,0,0,0,0,0,0,0,0,0,0,0,0,0,0,0,0,0,0,0,0,0,0,0,0,0,0,0,0,0,0,0,0,0,0,0,0,0,0,0,0,0,0,0,0,0,0,0,0,0,0,0,0,0,0,0,0,0,0,0,0,0,0,0,0,0,0,0,0,0,0,0,0,0,0,0,0,0,0,0,0,0,0,0,0,0,0,0,0,0,0,0,0,0,0,0,0,0,0,0,0,0,0,0,0,0,0,0,0,0,0,0,0,0,0,0,0,0,0,0,0,0,0,0,0,0,0,0,0,0,0,0,0,0,0,0,0,0,0,0,0,0,0,0,0,0,0,0,0,0,0,0,0,0,0,0,0,0,0,0,0,0,0,0,0,0,0,0,0,0,0,0,0,0,0,0,0,0,0,0,0,0,0,0,0,0,0,0,0,0,0,0,0,0,0,0,0,0,0,0,0,0,0,0,0,0,0,4196,4197,4198,4199,4200,4201,4202,4203,4204,4205,4206,4207,4208,4209,4210,4211,4212,4213,4214,0,0,0,0,0,0,0,0,0,0,0,0,0,0,0,0,0,0,0,0,0,0,0,0,0,0,0,0,0,0,0,0,0,0,0,0,0,0,
0,0,0,0,0,0,0,0,0,0,0,0,0,0,0,0,0,0,0,0,0,0,0,0,0,0,0,0,0,0,0,0,0,0,0,0,0,0,0,0,0,0,0,0,0,0,0,0,0,0,0,0,0,0,0,0,0,0,0,0,0,0,0,0,0,0,0,0,0,0,0,0,0,0,0,0,0,0,0,0,0,0,0,0,0,0,0,0,0,0,0,0,0,0,0,0,0,0,0,0,0,0,0,0,0,0,0,0,0,0,4676,4677,4678,4679,4680,4681,4682,4683,4684,4685,4686,4687,4688,0,0,0,0,0,0,0,0,0,0,0,0,0,0,0,0,0,0,0,0,0,0,0,0,0,0,0,0,0,0,0,0,0,4434,4435,4436,4437,4438,4439,4440,4441,4442,4443,4444,4445,4446,4447,4448,4449,4450,0,0,0,0,0,0,0,0,0,0,0,0,0,0,0,0,0,0,0,0,0,0,0,0,0,0,0,0,0,0,0,0,0,0,0,0,0,0,0,0,0,0,0,0,0,0,0,0,0,0,0,0,0,0,0,0,0,0,0,0,0,0,0,0,0,0,0,0,0,0,0,0,0,0,0,0,0,0,0,0,0,0,0,0,0,0,0,0,0,0,0,0,0,0,0,4418,4419,4420,4421,4422,4423,4424,4425,4426,4427,4428,4429,4430,4431,4432,4433,0,0,0,0,0,0,0,0,0,0,0,0,0,0,0,0,0,0,0,0,0,0,0,0,0,0,0,0,0,0,0,0,0,0,0,0,0,0,0,0,0,0,0,0,0,0,0,0,0,0,0,0,0,0,0,0,0,0,0,0,0,0,0,0,0,0,0,0,0,0,0,0,0,0,0,0,0,0,0,0,0,0,0,0,0,0,0,0,0,0,0,0,0,0,0,0,0,0,0,0,0,0,0,0,0,0,0,0,0,0,0,0,0,0,0,0,0,0,0,0,0,0,0,0,0,0,0,0,0,0,0,0,0,0,0,0,0,0,0,0,0,0,0,0,0,0,0,0,0,0,0,0,0,0,0,0,0,0,0,0,0,0,0,0,0,0,0,0,0,0,0,0,0,0,0,0,0,0,0,0,0,0,0,0,0,0,0,0,0,0,0,0,0,0,0,0,0,0,0,0,0,0,0,0,0,0,0,0,0,0,0,0,0,0,0,0,0,0,0,0,0,0,0,0,0,0,0,0,0,0,0,0,0,0,0,0,0,0,0,0,0,0,0,0,0,0,0,0,0,0,0,0,0,0,0,0,0,0,0,4260,4261,4262,4263,4264,4265,4266,4267,4268,4269,4270,4271,4272,4273,4274,4275,4276,4277,4278,0,0,0,0,0,0,0,0,0,0,0,0,0,0,0,0,0,0,0,0,0,0,0,0,0,0,0,0,0,0,0,0,0,0,0,0,0,0,
0,0,0,0,0,0,0,0,0,0,0,0,0,0,0,0,0,0,0,0,0,0,0,0,0,0,0,0,0,0,0,0,0,0,0,0,0,0,0,0,0,0,0,0,0,0,0,0,0,0,0,0,0,0,0,0,0,0,0,0,0,0,0,0,0,0,0,0,0,0,0,0,0,0,0,0,0,0,0,0,0,0,0,0,0,0,0,0,0,0,0,0,0,0,0,0,0,0,0,0,0,0,0,0,0,0,0,0,0,0,4740,4741,4742,4743,4744,4745,4746,4747,4748,4749,4750,4751,4752,0,0,0,0,0,0,0,0,0,0,0,0,0,0,0,0,0,0,0,0,0,0,0,0,0,0,0,0,0,0,0,0,0,4498,4499,4500,4501,4502,4503,4504,4505,4506,4507,4508,4509,4510,4511,4512,4513,4514,0,0,0,0,0,0,0,0,0,0,0,0,0,0,0,0,0,0,0,0,0,0,0,0,0,0,0,0,0,0,0,0,0,0,0,0,0,0,0,0,0,0,0,0,0,0,0,0,0,0,0,0,0,0,0,0,0,0,0,0,0,0,0,0,0,0,0,0,0,0,0,0,0,0,0,0,0,0,0,0,0,0,0,0,0,0,0,0,0,0,0,0,0,0,0,0,4483,4484,4485,4486,4487,4488,4489,4490,4491,4492,4493,4494,4495,4496,0,0,0,0,0,0,0,0,0,0,0,0,0,0,0,0,0,0,0,0,0,0,0,0,0,0,0,0,0,0,0,0,0,0,0,0,0,0,0,0,0,0,0,0,0,0,0,0,0,0,0,0,0,0,0,0,0,0,0,0,0,0,0,0,0,0,0,0,0,0,0,0,0,0,0,0,0,0,0,0,0,0,0,0,0,0,0,0,0,0,0,0,0,0,0,0,0,0,0,0,0,0,0,0,0,0,0,0,0,0,0,0,0,0,0,0,0,0,0,0,0,0,0,0,0,0,0,0,0,0,0,0,0,0,0,0,0,0,0,0,0,0,0,0,0,0,0,0,0,0,0,0,0,0,0,0,0,0,0,0,0,0,0,0,0,0,0,0,0,0,0,0,0,0,0,0,0,0,0,0,0,0,0,0,0,0,0,0,0,0,0,0,0,0,0,0,0,0,0,0,0,0,0,0,0,0,0,0,0,0,0,0,0,0,0,0,0,0,0,0,0,0,0,0,0,0,0,0,0,0,0,0,0,0,0,0,0,0,0,0,0,0,0,0,0,0,0,0,0,0,0,0,0,0,0,0,0,0,0,0,4324,4325,4326,4327,4328,4329,4330,4331,4332,4333,4334,4335,4336,4337,4338,4339,4340,4341,4342,0,0,0,0,0,0,0,0,0,0,0,0,0,0,0,0,0,0,0,0,0,0,0,0,0,0,0,0,0,0,0,0,0,0,0,0,0,0,
0,0,0,0,0,0,0,0,0,0,0,0,0,0,0,0,0,0,0,0,0,0,0,0,0,0,0,0,0,0,0,0,0,0,0,0,0,0,0,0,0,0,0,0,0,0,0,0,0,0,0,0,0,0,0,0,0,0,0,0,0,0,0,0,0,0,0,0,0,0,0,0,0,0,0,0,0,0,0,0,0,0,0,0,0,0,0,0,0,0,0,0,0,0,0,0,0,0,0,0,0,0,0,0,0,0,0,0,0,0,0,0,4806,4807,4808,4809,4810,4811,4812,4813,4814,0,0,0,0,0,0,0,0,0,0,0,0,0,0,0,0,0,0,0,0,0,0,0,0,0,0,0,0,0,0,0,0,0,0,0,4562,4563,4564,4565,4566,4567,4568,4569,4570,4571,4572,4573,4574,4575,4576,4577,4578,0,0,0,0,0,0,0,0,0,0,0,0,0,0,0,0,0,0,0,0,0,0,0,0,0,0,0,0,0,0,0,0,0,0,0,0,0,0,0,0,0,0,0,0,0,0,0,0,0,0,0,0,0,0,0,0,0,0,0,0,0,0,0,0,0,0,0,0,0,0,0,0,0,0,0,0,0,0,0,0,0,0,0,0,0,0,0,0,0,0,0,0,0,0,0,0,4547,4548,4549,4550,4551,4552,4553,4554,4555,4556,4557,4558,4559,4560,0,0,0,0,0,0,0,0,0,0,0,0,0,0,0,0,0,0,0,0,0,0,0,0,0,0,0,0,0,0,0,0,0,0,0,0,0,0,0,0,0,0,0,0,0,0,0,0,0,0,0,0,0,0,0,0,0,0,0,0,0,0,0,0,0,0,0,0,0,0,0,0,0,0,0,0,0,0,0,0,0,0,0,0,0,0,0,0,0,0,0,0,0,0,0,0,0,0,0,0,0,0,0,0,0,0,0,0,0,0,0,0,0,0,0,0,0,0,0,0,0,0,0,0,0,0,0,0,0,0,0,0,0,0,0,0,0,0,0,0,0,0,0,0,0,0,0,0,0,0,0,0,0,0,0,0,0,0,0,0,0,0,0,0,0,0,0,0,0,0,0,0,0,0,0,0,0,0,0,0,0,0,0,0,0,0,0,0,0,0,0,0,0,0,0,0,0,0,0,0,0,0,0,0,0,0,0,0,0,0,0,0,0,0,0,0,0,0,0,0,0,0,0,0,0,0,0,0,0,0,0,0,0,0,0,0,0,0,0,0,0,0,0,0,0,0,0,0,0,0,0,0,0,0,0,0,0,0,0,0,4388,4389,4390,4391,4392,4393,4394,4395,4396,4397,4398,4399,4400,4401,4402,4403,4404,4405,4406,0,0,0,0,0,0,0,0,0,0,0,0,0,0,0,0,0,0,0,0,0,0,0,0,0,0,0,0,0,0,0,0,0,0,0,0,0,0,
0,0,0,0,0,0,0,0,0,0,0,0,0,0,0,0,0,0,0,0,0,0,0,0,0,0,0,0,0,0,0,0,0,0,0,0,0,0,0,0,0,0,0,0,0,0,0,0,0,0,0,0,0,0,0,0,0,0,0,0,0,0,0,0,0,0,0,0,0,0,0,0,0,0,0,0,0,0,0,0,0,0,0,0,0,0,0,0,0,0,0,0,0,0,0,0,0,0,0,0,0,0,0,0,0,0,0,0,0,0,0,0,4870,4871,4872,4873,4874,4875,4876,4877,4878,0,0,0,0,0,0,0,0,0,0,0,0,0,0,0,0,0,0,0,0,0,0,0,0,0,0,0,0,0,0,0,0,0,0,0,4626,4627,4628,4629,4630,4631,4632,4633,4634,4635,4636,4637,4638,4639,4640,4641,4642,0,0,0,0,0,0,0,0,0,0,0,0,0,0,0,0,0,0,0,0,0,0,0,0,0,0,0,0,0,0,0,0,0,0,0,0,0,0,0,0,0,0,0,0,0,0,0,0,0,0,0,0,0,0,0,0,0,0,0,0,0,0,0,0,0,0,0,0,0,0,0,0,0,0,0,0,0,0,0,0,0,0,0,0,0,0,0,0,0,0,0,0,0,0,0,0,4611,4612,4613,4614,4615,4616,4617,4618,4619,4620,4621,4622,4623,4624,0,0,0,0,0,0,0,0,0,0,0,0,0,0,0,0,0,0,0,0,0,0,0,0,0,0,0,0,0,0,0,0,0,0,0,0,0,0,0,0,0,0,0,0,0,0,0,0,0,0,0,0,0,0,0,0,0,0,0,0,0,0,0,0,0,0,0,0,0,0,0,0,0,0,0,0,0,0,0,0,0,0,0,0,0,0,0,0,0,0,0,0,0,0,0,0,0,0,0,0,0,0,0,0,0,0,0,0,0,0,0,0,0,0,0,0,0,0,0,0,0,0,0,0,0,0,0,0,0,0,0,0,0,0,0,0,0,0,0,0,0,0,0,0,0,0,0,0,0,0,0,0,0,0,0,0,0,0,0,0,0,0,0,0,0,0,0,0,0,0,0,0,0,0,0,0,0,0,0,0,0,0,0,0,0,0,0,0,0,0,0,0,0,0,0,0,0,0,0,0,0,0,0,0,0,0,0,0,0,0,0,0,0,0,0,0,0,0,0,0,0,0,0,0,0,0,0,0,0,0,0,0,0,0,0,0,0,0,0,0,0,0,0,0,0,0,0,0,0,0,0,0,0,0,0,0,0,0,0,0,4452,4453,4454,4455,4456,4457,4458,4459,4460,4461,4462,4463,4464,4465,4466,4467,4468,4469,4470,0,0,0,0,0,0,0,0,0,0,0,0,0,0,0,0,0,0,0,0,0,0,0,0,0,0,0,0,0,0,0,0,0,0,0,0,0,0,
0,0,0,0,0,0,0,0,0,0,0,0,0,0,0,0,0,0,0,0,0,0,0,0,0,0,0,0,0,0,0,0,0,0,0,0,0,0,0,0,0,0,0,5697,5698,5699,5700,5701,5702,5703,0,0,0,0,0,0,0,0,0,0,0,0,0,0,0,0,0,0,0,0,0,0,0,0,0,0,0,0,0,0,0,0,0,0,0,0,0,0,0,0,0,0,0,0,0,0,0,0,0,0,0,0,0,0,0,0,0,0,0,0,0,0,0,0,4936,4937,4938,4939,0,0,0,0,0,0,0,0,0,0,0,0,0,0,0,0,0,0,0,0,0,0,0,0,0,0,0,0,0,0,0,0,0,0,0,0,0,0,4690,4691,4692,4693,4694,4695,4696,4697,4698,4699,4700,4701,4702,4703,4704,4705,4706,0,0,0,0,0,0,0,0,0,0,0,0,0,0,0,0,0,0,0,0,0,0,0,0,0,0,0,0,0,0,0,0,0,0,0,0,0,0,0,0,0,0,0,0,0,0,0,0,0,0,0,0,0,0,0,0,0,0,0,0,0,0,0,0,0,0,0,0,0,0,0,0,0,0,0,0,0,0,0,0,0,0,0,0,0,0,0,0,0,0,0,0,0,0,0,0,0,4676,4677,4678,4679,4680,4681,4682,4683,4684,4685,4686,4687,4688,0,0,0,0,0,0,0,0,0,0,0,0,0,0,0,0,0,0,0,0,0,0,0,0,0,0,0,0,0,0,0,0,0,0,0,0,0,0,0,0,0,0,0,0,0,0,0,0,0,0,0,0,0,0,0,0,0,0,0,0,0,0,0,0,0,0,0,0,0,0,0,0,0,0,0,0,0,0,0,0,0,0,0,0,0,0,0,0,0,0,0,0,0,0,0,0,0,0,0,0,0,0,0,0,0,0,0,0,0,0,0,0,0,0,0,0,0,0,0,0,0,0,0,0,0,0,0,0,0,0,0,0,0,0,0,0,0,0,0,0,0,0,0,0,0,0,0,0,0,0,0,0,0,0,0,0,0,0,0,0,0,0,0,0,0,0,0,0,0,0,0,0,0,0,0,0,0,0,0,0,0,0,0,0,0,0,0,0,0,0,0,0,0,0,0,0,0,0,0,0,0,0,0,0,0,0,0,0,0,0,0,0,0,0,0,0,0,0,0,0,0,0,0,0,0,0,0,0,0,0,0,0,0,0,0,0,0,0,0,0,0,0,0,0,0,0,0,0,0,0,0,0,0,0,0,0,0,0,0,0,4516,4517,4518,4519,4520,4521,4522,4523,4524,4525,4526,4527,4528,4529,4530,4531,4532,4533,4534,0,0,0,0,0,0,0,0,0,0,0,0,0,0,0,0,0,0,0,0,0,0,0,0,0,0,0,0,0,0,0,0,0,0,0,0,0,0,
0,0,0,0,0,0,0,0,0,0,0,0,0,0,0,0,0,0,0,0,0,0,0,0,0,0,0,0,0,0,0,0,0,0,0,0,0,0,0,0,0,0,0,5761,5762,5763,5764,5765,5766,5767,0,0,0,0,0,0,0,0,0,0,0,0,0,0,0,0,0,0,0,0,0,0,0,0,0,0,0,0,0,0,0,0,0,0,0,0,0,0,0,0,0,0,0,0,0,0,0,0,0,0,0,0,0,0,0,0,0,0,0,0,0,0,4998,4999,5000,5001,5002,5003,0,0,0,0,0,0,0,0,0,0,0,0,0,0,0,0,1513,1514,6171,1633,1633,1632,1513,1514,0,0,0,2526,2527,2528,0,0,0,0,0,0,0,0,4754,4755,4756,4757,4758,4759,4760,4761,4762,4763,4764,4765,4766,4767,4768,4769,4770,0,0,0,0,0,0,0,0,0,0,0,0,0,0,0,0,0,0,0,0,0,0,0,0,0,0,0,0,0,0,0,0,0,0,0,0,0,0,0,0,0,0,0,0,0,0,0,0,0,0,0,0,0,0,0,0,0,0,0,0,0,0,0,0,0,0,0,0,0,0,0,0,0,0,0,0,0,0,0,0,0,0,0,0,0,0,0,0,0,0,0,0,0,0,0,0,0,4740,4741,4742,4743,4744,4745,4746,4747,4748,4749,4750,4751,4752,0,0,0,0,0,0,0,0,0,0,0,0,0,0,0,0,0,0,0,0,0,0,0,0,0,0,0,0,0,0,0,0,0,0,0,0,0,0,0,0,0,0,0,0,0,0,0,0,0,0,0,0,0,0,0,0,0,0,0,0,0,0,0,0,0,0,0,0,0,0,0,0,0,0,0,0,0,0,0,0,0,0,0,0,0,0,0,0,0,0,0,0,0,0,0,0,0,5697,5698,5699,5700,5701,5702,5703,0,0,0,0,0,0,0,0,0,0,0,0,0,0,0,0,0,0,0,0,0,0,0,0,0,0,0,0,0,0,0,0,0,0,0,0,0,0,0,0,0,0,0,0,0,0,0,0,0,0,0,0,0,0,0,0,0,0,0,0,0,0,0,0,0,0,0,0,0,0,0,0,0,0,0,0,0,0,0,0,0,0,0,0,0,0,0,0,0,0,0,0,0,0,0,0,0,0,0,0,0,0,0,0,0,0,0,0,0,0,0,0,0,0,0,0,0,0,0,0,0,0,0,0,0,0,0,0,0,0,0,0,0,0,0,0,0,0,0,0,0,0,0,0,0,0,0,0,0,0,0,0,0,0,0,0,4580,4581,4582,4583,4584,4585,4586,4587,4588,4589,4590,4591,4592,4593,4594,4595,4596,4597,4598,0,0,0,0,0,0,0,0,0,0,0,0,0,0,0,0,0,0,0,0,0,0,0,0,0,0,0,0,0,0,0,0,0,0,0,0,0,0,
0,0,0,0,0,0,0,0,0,0,0,0,0,0,0,0,0,0,0,0,0,0,0,0,0,0,0,0,0,0,0,0,0,0,0,0,0,0,0,0,0,0,0,5825,5826,5827,5828,5829,5830,5831,0,0,0,0,0,0,0,0,0,0,0,0,0,0,0,0,0,0,0,0,0,0,0,0,0,0,0,0,0,0,0,0,0,0,0,0,0,0,0,0,0,0,0,0,0,0,0,0,0,0,0,0,0,0,0,0,0,0,0,0,0,0,0,5063,5064,5065,5066,5067,0,0,0,5378,5379,5832,5833,5834,5835,5836,5837,0,0,0,0,0,2654,1506,1696,1696,1696,1696,1511,2655,2526,2527,2528,2590,2591,2592,0,0,0,0,0,0,0,0,0,0,0,4821,4822,4823,4824,4825,4826,4827,4828,4829,4830,0,0,0,0,0,0,0,0,0,0,0,0,0,0,0,0,0,0,0,0,0,0,0,0,0,0,0,0,0,0,0,0,0,0,0,0,0,0,0,0,0,0,0,0,0,0,0,0,0,0,0,0,0,0,0,0,0,0,0,0,0,0,0,0,0,0,0,0,0,0,0,0,0,0,0,0,0,0,0,0,0,0,0,0,0,0,0,0,0,0,0,0,0,0,0,0,0,0,0,0,0,0,0,4806,4807,4808,4809,4810,4811,4812,4813,4814,0,0,0,0,0,0,0,0,0,0,0,0,0,0,0,0,0,0,0,0,0,0,0,0,0,0,0,0,0,0,0,0,0,0,0,0,0,0,0,0,0,0,0,0,0,0,0,0,0,0,0,0,0,0,0,0,0,0,0,0,0,0,0,0,0,0,0,0,0,0,0,0,0,0,0,0,0,0,0,0,0,0,0,0,0,0,0,0,0,0,0,0,0,0,0,0,0,0,0,5761,5762,5763,5764,5765,5766,5767,0,0,0,0,0,0,0,0,0,0,0,0,0,0,0,0,0,0,0,0,0,0,0,0,0,0,0,0,0,0,0,0,0,0,0,0,0,0,0,0,0,0,0,0,0,0,0,0,0,0,0,0,0,0,0,0,0,0,0,0,0,0,0,0,0,0,0,0,0,0,0,0,0,0,0,0,0,0,0,0,0,0,0,0,0,0,0,0,0,0,0,0,0,0,0,0,0,0,0,0,0,0,0,0,0,0,0,0,0,0,0,0,0,0,0,0,0,0,0,0,0,0,0,0,0,0,0,0,0,0,0,0,0,0,0,0,0,0,0,0,0,0,0,0,0,0,0,0,0,0,0,0,0,0,0,0,4644,4645,4646,4647,4648,4649,4650,4651,4652,4653,4654,4655,4656,4657,4658,4659,4660,4661,4662,0,0,0,0,0,0,0,0,0,0,0,0,0,0,0,0,0,0,0,0,0,0,0,0,0,0,0,0,0,0,0,0,0,0,0,0,0,0,
0,0,0,0,0,0,0,0,0,0,0,0,0,0,0,0,0,0,0,0,0,0,0,0,0,0,0,0,0,0,0,0,0,0,0,0,0,0,0,0,0,0,0,5889,5890,5891,5892,5893,5894,5895,0,0,0,0,0,0,0,0,0,0,0,0,0,0,0,0,0,0,0,0,0,0,0,0,0,0,0,0,0,0,0,0,0,0,0,0,0,0,0,0,0,0,0,0,0,0,0,0,0,0,0,0,0,0,0,0,0,0,0,0,0,0,0,0,5128,5129,5130,5131,0,0,0,5442,5443,5896,5897,5898,5899,5900,5901,0,0,0,0,0,2718,2594,2595,2596,2597,2598,2599,2719,2590,2591,2592,2654,5476,5477,0,0,0,0,0,0,0,0,0,0,0,4885,4886,4887,4888,4889,4890,4891,4892,4893,4894,0,0,0,0,0,0,0,0,0,0,0,0,0,0,0,0,0,0,0,0,0,0,0,0,0,0,1377,2852,6171,1381,1382,1383,1384,1384,0,0,0,0,0,0,0,0,0,0,0,0,0,0,0,0,0,0,0,0,0,0,0,0,0,0,0,0,0,0,0,0,0,0,0,0,0,0,0,0,0,0,0,0,0,0,0,0,0,0,0,0,0,0,0,0,0,0,0,0,0,0,0,0,0,0,0,0,0,4870,4871,4872,4873,4874,4875,4876,4877,4878,0,0,0,0,0,0,0,0,0,0,0,0,0,0,0,0,0,0,0,0,0,0,0,0,0,0,0,0,0,0,0,0,0,0,0,0,0,0,0,0,0,0,0,0,0,0,0,0,0,0,0,0,0,0,0,0,0,0,0,0,0,0,0,0,0,0,0,0,0,0,0,0,0,0,0,0,0,0,0,0,0,0,0,0,0,0,0,0,0,0,0,0,0,0,0,0,0,0,0,5825,5826,5827,5828,5829,5830,5831,0,0,0,0,0,0,0,0,0,0,0,0,0,0,0,0,0,0,0,0,0,0,0,0,0,0,0,0,0,0,0,0,0,0,0,0,0,0,0,0,0,0,0,0,0,0,0,0,0,0,0,0,0,0,0,0,0,0,0,0,0,0,0,0,0,0,0,0,0,0,0,0,0,0,0,0,0,0,0,0,0,0,0,0,0,0,0,0,0,0,0,0,0,0,0,0,0,0,0,0,0,0,0,0,0,0,0,0,0,0,0,0,0,0,0,0,0,0,0,0,0,0,0,0,0,0,0,0,0,0,0,0,0,0,0,0,0,0,0,0,0,0,0,0,0,0,0,0,0,0,0,0,0,0,0,0,4708,4709,4710,4711,4712,4713,4714,4715,4716,4717,4718,4719,4720,4721,4722,4723,4724,4725,4726,0,0,0,0,0,0,0,0,0,1378,1379,1380,6167,6168,2852,2853,2851,2852,2853,2851,2852,6292,6293,6294,6164,6165,1643,1644,2604,2605,0,0,0,0,0,0,0,0,
0,0,0,0,0,0,0,0,0,0,0,0,0,0,0,0,0,0,0,0,0,0,0,0,0,0,0,0,0,0,0,0,0,0,0,0,0,0,0,0,0,0,0,5953,5954,5955,5956,5957,5958,5959,0,0,0,0,0,0,0,0,0,0,0,0,0,0,0,0,0,0,0,0,0,0,0,0,0,0,0,0,0,0,0,0,0,0,0,0,0,0,0,0,0,0,0,0,0,0,0,0,0,0,0,0,0,0,0,0,0,0,0,0,0,0,0,0,5192,5193,5194,5195,0,0,0,0,5959,5960,5961,5962,5963,5964,5965,0,0,0,0,0,0,2658,2659,2660,2661,2662,2663,2526,2526,5853,5854,5855,5476,5477,2528,0,0,0,0,0,0,0,0,0,0,4949,4950,4951,4952,4953,4954,4955,4956,4957,4958,0,0,0,0,0,0,0,0,0,0,0,0,0,0,0,0,0,0,0,0,0,0,0,0,0,1377,1444,2916,2917,1445,1446,1447,1448,1448,0,0,0,0,0,0,0,0,0,5697,5698,5699,5700,5701,5702,5703,0,0,0,0,0,0,0,0,0,0,0,0,0,0,0,0,0,0,0,0,0,0,0,0,0,0,0,0,2733,2734,2735,0,0,0,0,0,0,0,0,0,0,0,0,0,0,0,0,0,0,0,0,0,0,0,0,4936,4937,4938,4939,0,0,0,0,0,0,0,0,0,0,0,0,0,0,0,0,0,0,0,0,0,0,0,0,0,0,0,0,0,0,0,0,0,0,0,0,0,0,0,0,0,0,0,0,0,0,0,0,0,0,0,0,0,0,0,0,0,0,0,0,0,0,0,0,0,0,0,0,0,0,0,0,0,0,0,0,0,0,0,0,0,0,0,0,0,0,0,0,0,0,0,0,0,0,0,0,0,0,0,0,0,0,5889,5890,5891,5892,5893,5894,5895,0,0,0,0,0,0,0,0,0,0,0,0,0,0,0,0,0,0,0,0,0,0,0,0,0,0,0,0,0,0,0,0,0,0,0,0,0,0,0,0,0,0,0,0,0,0,0,0,0,0,0,0,0,0,0,0,0,0,0,0,0,0,0,0,0,0,0,0,0,0,0,0,0,0,0,0,0,0,0,0,0,0,0,0,0,0,0,0,0,0,0,0,0,0,0,0,0,0,0,0,0,0,0,0,0,0,0,0,0,0,0,0,0,0,0,0,0,0,0,0,0,0,0,0,0,0,0,0,0,0,0,0,0,0,0,0,0,0,0,0,0,0,0,0,0,0,0,0,0,0,0,0,0,0,0,0,4772,4773,4774,4775,4776,4777,4778,4779,4780,4781,4782,4783,4784,4785,4786,4787,4788,4789,4790,0,0,0,0,0,0,0,0,0,1442,1443,1444,2918,2915,2916,2917,2915,2916,2917,2915,2916,2917,2918,2916,2915,1706,1707,1708,2604,2605,0,0,0,0,0,0,0,0,
0,0,0,0,0,0,0,0,0,0,0,0,0,0,0,0,0,0,0,0,0,0,0,0,0,0,0,0,0,0,0,0,0,0,0,0,0,0,0,0,0,0,0,0,0,6019,6020,6021,0,0,0,0,0,0,0,0,0,0,0,0,0,0,0,0,0,0,0,0,0,0,0,0,0,0,0,0,0,0,0,0,0,0,0,0,0,0,0,0,0,0,0,0,0,0,0,0,0,0,0,0,0,0,0,0,0,0,0,0,0,0,0,0,0,0,5256,5257,5258,5259,0,0,0,0,6023,6024,6025,6026,6027,6028,753,754,755,756,0,0,0,2722,2723,2724,2725,2726,2727,1514,1632,5917,5918,5919,5540,5541,2592,0,0,0,0,0,0,0,0,0,0,5013,5014,5015,5016,5017,5018,5019,5020,5021,5022,0,0,0,0,0,0,0,0,0,0,0,0,0,0,0,0,0,0,0,0,0,0,0,0,0,2078,2079,2976,2976,1509,1510,1511,1381,1382,0,0,0,0,0,0,0,0,0,5761,5762,5763,5764,5765,5766,5767,2735,2735,0,0,0,0,0,0,0,0,0,0,0,0,0,0,0,0,0,0,0,0,0,0,0,0,0,0,2797,2798,2799,0,0,0,0,0,0,0,0,0,0,0,0,0,0,0,0,0,0,0,0,0,0,4998,4999,5000,5001,5002,5003,0,0,0,0,0,0,0,0,0,0,0,0,0,0,0,0,0,0,0,0,0,0,0,0,0,0,0,0,0,0,0,0,0,0,0,0,0,0,0,0,0,0,0,0,0,0,0,0,0,0,0,0,0,0,0,0,0,0,0,0,0,0,0,0,0,0,0,0,0,0,0,0,0,0,0,0,0,0,0,0,0,0,0,0,0,0,0,0,0,0,0,0,0,0,0,0,0,0,0,0,0,0,5953,5954,5955,5956,5957,5958,5959,0,0,0,0,0,0,0,0,0,0,0,0,0,0,0,0,0,0,0,0,0,0,0,0,0,0,0,0,0,0,0,0,0,0,0,0,0,0,0,0,0,0,0,0,0,0,0,0,0,0,0,0,0,0,0,0,0,0,0,0,0,0,0,0,0,0,0,0,0,0,0,0,0,0,0,0,0,0,0,0,0,0,0,0,0,0,0,0,0,0,0,0,0,0,0,0,0,0,0,0,0,0,0,0,0,0,0,0,0,0,0,0,0,0,0,0,0,0,0,0,0,0,0,0,0,0,0,0,0,0,0,0,0,0,0,0,0,0,0,0,0,0,0,0,0,0,0,0,0,0,0,0,0,0,0,0,4836,4837,4838,4839,4840,4841,4842,4843,4844,4845,4846,4847,4848,4849,4850,4851,4852,4853,4854,0,0,0,0,0,0,1378,1379,1380,1506,1507,1508,2977,2978,2976,2976,2976,2976,2977,2976,2208,2209,2976,2976,2976,1770,1771,1772,2604,2605,0,0,0,0,0,0,0,0,
0,0,0,0,0,0,0,0,0,0,0,0,0,0,0,0,0,0,0,0,0,0,0,0,0,0,0,0,0,0,0,0,0,0,0,0,0,0,0,0,0,0,0,0,0,0,6084,6085,0,0,0,0,0,0,0,0,0,0,0,0,0,0,0,0,0,0,0,0,0,0,0,0,0,0,0,0,0,0,0,0,0,0,0,0,0,0,0,0,0,0,0,0,0,0,0,0,0,0,0,0,0,0,0,0,0,0,0,0,0,0,0,0,0,0,5320,5321,5322,5323,5324,0,0,0,6087,6088,6089,6090,6091,6092,817,818,819,820,0,0,0,0,0,0,0,0,2654,1506,1696,1696,1696,1696,1511,2655,2656,0,0,0,0,0,0,0,0,0,0,5077,5078,5079,5080,5081,5082,5083,5084,5085,5086,0,0,0,0,0,0,0,0,0,0,0,0,0,0,0,0,0,0,0,0,0,0,0,0,0,2142,2143,2977,3040,1573,1574,1575,1445,1446,1381,1382,1383,1384,1384,0,0,0,0,5825,5826,5827,5828,5829,5830,5831,2735,2799,2735,2735,2735,2735,2735,2735,2735,2735,2735,2735,0,2727,1514,1632,1633,2853,6299,2852,2853,2851,2852,2853,2854,6171,2852,1447,2861,2733,2734,2735,2734,2735,2727,1514,6164,6165,2853,2851,2852,2853,2851,6171,2853,2854,2853,2852,1447,0,0,0,0,0,5063,5064,5065,5066,5067,0,0,0,0,0,0,0,0,0,0,0,0,0,0,0,0,0,0,0,0,0,0,0,0,0,0,0,0,0,0,0,0,0,0,0,0,0,0,0,0,0,0,0,0,0,0,0,0,0,0,0,0,0,0,0,0,0,0,0,0,0,0,0,0,0,0,0,0,0,0,0,0,0,0,0,0,0,0,0,0,0,0,0,0,0,0,0,0,0,0,0,0,0,0,0,0,0,0,0,0,0,0,0,0,6019,6020,6021,0,0,0,0,0,0,0,0,0,0,0,0,0,0,0,0,0,0,0,0,0,0,0,0,0,0,0,0,0,0,0,0,0,0,0,0,0,0,0,0,0,0,0,0,0,0,0,0,0,0,0,0,0,0,0,0,0,0,0,0,0,0,0,0,0,0,0,0,0,0,0,0,0,0,0,0,0,0,0,0,0,0,0,0,0,0,0,0,0,0,0,0,0,0,0,0,0,0,0,0,0,0,0,0,0,0,0,0,0,0,0,0,0,0,0,0,0,0,0,0,0,0,0,0,0,0,0,0,0,0,0,0,0,0,0,0,0,0,0,0,0,0,0,0,0,0,0,0,0,0,0,0,0,0,0,0,0,0,4900,4901,4902,4903,4904,4905,4906,4907,4908,4909,4910,4911,4912,4913,4914,4915,4916,4917,4918,0,0,0,0,0,0,1442,1443,1444,1507,2208,2208,2977,2978,2979,3040,3040,3040,2976,3040,2208,2209,3040,3040,2976,1834,3434,3499,2604,2605,0,0,0,0,0,0,0,0,
0,0,0,0,0,0,0,0,0,0,0,0,0,0,0,0,0,0,0,0,0,0,0,0,0,0,0,0,0,0,0,0,0,0,0,0,0,0,0,0,0,0,0,0,0,0,6148,6149,0,0,0,0,0,0,0,0,0,0,0,0,0,0,0,0,0,0,0,0,0,0,0,0,0,0,0,0,0,0,0,0,0,0,0,0,0,0,0,0,0,0,0,0,0,0,0,0,0,0,0,0,0,0,0,0,0,0,0,0,5798,5799,5800,5801,0,5383,5384,5385,5386,5387,5388,0,0,0,6151,6152,6153,6154,6155,6156,881,882,883,884,0,0,0,0,0,0,0,0,2718,2594,2595,2596,2597,2598,2599,2719,2720,0,0,0,0,0,0,0,0,0,0,5141,5142,5143,5144,5145,5146,5147,5148,5149,5150,0,0,0,0,0,0,0,0,0,0,0,0,0,0,0,0,0,0,0,0,0,0,0,0,0,2014,2015,2977,2978,3104,3105,3106,1509,1510,1445,1446,1447,1448,1448,0,0,0,0,5889,5890,5891,5892,5893,5894,5895,2733,2734,2735,2799,2799,2799,2799,2799,2799,2799,2799,2799,2735,2654,1506,1696,1696,2917,2915,2916,2917,2915,2916,2917,2918,2917,2916,1511,2925,2797,2798,2799,2798,2799,2654,1506,1696,1696,2917,2915,2916,2917,2915,2916,2917,2918,2917,2916,1511,0,0,0,0,0,0,5128,5129,5130,5131,0,0,0,0,0,0,0,0,0,0,0,0,0,0,0,0,0,0,0,0,0,0,0,0,0,0,0,0,0,0,0,0,0,0,0,0,0,0,0,0,0,0,0,0,0,0,0,0,0,0,0,0,0,0,0,0,0,0,0,0,0,0,0,0,0,0,0,0,0,0,0,0,0,0,0,0,0,0,0,0,0,0,0,0,0,0,0,0,0,0,0,0,0,0,0,0,0,0,0,0,0,0,0,0,0,6084,6085,0,0,0,0,0,0,0,0,0,0,0,0,0,0,0,0,0,0,0,0,0,0,0,0,0,0,0,0,0,0,0,0,0,0,0,0,0,0,0,0,0,0,0,0,0,0,0,0,0,0,0,0,0,0,0,0,0,0,0,0,0,0,5699,5700,5701,5702,0,0,0,0,0,0,0,0,0,0,0,0,0,0,0,0,0,0,0,0,0,0,0,0,0,0,0,0,0,0,0,0,0,0,0,0,0,0,0,0,0,0,0,0,0,0,0,0,0,0,0,0,0,0,0,0,0,0,0,0,0,0,0,0,0,0,0,0,0,0,0,0,0,0,0,0,0,0,0,0,0,0,0,0,0,0,0,0,0,0,0,0,4964,4965,4966,4967,4968,4969,4970,4971,4972,4973,4974,4975,4976,4977,4978,4979,4980,4981,4982,0,0,0,1378,1379,1380,1506,1507,1508,2272,2272,2208,3043,3040,2208,2208,2209,3043,3040,3104,2208,2209,2977,2976,2597,2598,2599,1900,2604,2605,0,0,0,0,0,0,0,0,
0,0,0,0,0,0,0,0,0,0,0,0,0,0,0,0,0,0,0,0,0,0,0,0,0,0,0,0,0,0,0,0,0,0,0,0,0,0,6045,6046,6047,6048,6049,6050,6051,6211,6212,6213,6214,0,0,0,0,0,0,0,0,0,0,0,0,0,0,0,0,0,0,1255,1256,2926,0,0,0,0,0,0,0,0,0,0,0,0,0,0,0,0,0,0,0,0,0,0,0,0,0,0,0,0,0,0,0,6045,6046,6047,6048,6049,6050,6051,5862,5863,5864,5865,5446,5447,5448,5449,5450,5451,5452,5453,0,0,6215,6216,6217,6218,6219,6220,945,946,947,948,0,0,0,0,0,0,0,0,0,2658,2659,2660,2661,2662,2663,0,0,0,0,0,0,0,0,0,0,0,0,5205,5206,5207,5208,5209,5210,5211,5212,5213,5214,0,0,0,0,0,0,0,0,0,0,0,0,0,0,0,0,0,0,0,0,0,0,0,0,0,2078,2079,2016,3106,2144,2144,2272,2273,2274,2275,1510,1511,1381,1382,1383,1384,1384,0,5953,5954,5955,5956,5957,5958,5959,2797,2733,2733,2733,2733,2733,2733,2734,2735,2863,2863,2863,2799,2718,2594,2595,2596,2336,2208,2209,2336,2208,2209,2976,3040,3040,2272,1638,2536,2733,2734,2735,2862,2863,2718,2594,2595,2596,2336,2208,2209,2336,2208,2209,2976,3040,3040,2272,1638,2536,0,0,0,0,0,5192,5193,5194,5195,0,0,0,0,0,0,0,0,0,0,0,0,0,0,0,0,0,0,0,0,0,0,0,0,0,0,0,0,0,0,0,0,0,0,0,0,0,0,0,0,0,0,0,0,0,0,0,0,0,0,0,0,0,0,0,0,0,0,0,0,0,0,0,0,0,0,0,0,0,0,0,0,0,0,0,0,0,0,0,0,0,0,0,0,0,0,0,0,0,0,0,0,0,0,0,0,0,0,0,0,0,0,0,0,0,6148,6149,0,0,0,0,0,0,0,0,0,0,0,0,0,0,0,0,0,0,0,0,0,0,0,0,0,0,0,0,0,0,0,0,0,0,0,0,0,0,0,0,0,0,0,0,0,0,0,0,0,0,0,0,0,0,0,0,0,0,0,0,0,5762,5763,5764,5765,5766,5767,0,0,0,0,0,0,0,0,0,0,0,0,0,0,0,0,0,0,0,0,0,0,0,0,0,0,0,0,0,0,0,0,0,0,0,0,0,0,0,0,0,0,0,0,0,0,0,0,0,0,0,0,0,0,0,0,0,0,0,0,0,0,0,0,0,0,0,0,0,0,0,0,0,0,0,0,0,0,0,0,0,0,0,0,0,0,0,0,0,0,0,0,0,0,0,0,0,0,0,5036,5037,5038,5039,5040,5041,5042,5043,5044,5045,5046,0,0,0,1442,1443,1444,1507,2976,3040,2272,2272,2208,2209,2209,2209,2978,2208,3042,2976,2976,2272,2273,2978,2976,2661,2662,2663,1964,2668,2669,0,0,0,0,0,0,0,0,
1442,1632,2853,6299,2853,2854,2851,2852,2853,2851,2852,2853,2851,6299,2853,2854,2852,2851,2852,2853,2854,2854,2854,2854,2851,2852,2853,2854,2853,2854,2851,2852,2853,6299,2853,2851,2852,2853,6109,6110,6111,6112,6113,6114,6115,6275,6276,6277,6278,6299,6299,2854,2854,2853,2854,6299,2852,2853,2854,2854,2851,2853,2854,2851,6171,2853,1386,1319,1320,2990,0,0,0,0,0,0,0,0,0,0,0,0,0,0,0,0,0,0,0,0,0,0,0,0,0,0,0,0,1378,1379,1380,6109,6110,6111,6112,6113,6114,6115,5926,5927,5928,5929,5510,5511,5512,5513,5514,5515,5516,5517,6171,2853,2854,2854,6281,6282,6283,6284,2851,2852,6171,2854,2854,2853,1381,1382,1383,1384,1384,0,0,2722,2723,2724,2725,2726,2727,0,0,0,0,0,0,2527,2528,0,0,0,0,5269,5270,5271,5272,5273,5274,5275,5276,5277,5278,0,0,0,0,0,0,0,0,0,0,0,0,0,0,0,0,0,0,0,0,0,0,0,0,0,2078,2079,2080,2209,2208,2144,2336,2337,2338,2339,1574,1575,1445,1446,1447,1448,1448,0,0,0,6019,6020,6021,2861,2861,2861,2797,2797,2797,2797,2797,2797,2798,2799,2927,6061,6062,6063,6064,6065,6066,2660,2399,2400,2401,2399,2400,2401,2399,2400,2399,2400,2599,2600,2797,2798,2799,2926,2927,2352,2658,2659,2660,2399,2400,2401,2399,2400,2401,2399,2400,2399,2400,2599,2600,0,0,0,0,0,5256,5257,5258,5259,0,0,0,0,0,0,0,0,0,0,0,0,0,0,0,0,0,0,0,0,0,0,0,0,0,0,0,0,0,0,0,0,0,0,0,0,0,0,0,0,0,0,0,0,0,0,0,0,0,0,0,0,0,0,0,0,0,0,0,0,0,0,0,0,0,0,0,0,0,0,0,0,0,0,0,0,0,0,0,0,0,0,0,0,0,0,0,0,0,0,0,0,0,0,0,0,0,0,0,0,0,0,0,0,6211,6212,6213,6214,0,0,0,0,0,0,0,0,0,0,0,0,0,0,0,0,0,0,0,0,0,0,0,0,0,0,0,0,0,0,0,0,0,0,0,0,0,0,0,0,0,0,0,0,0,0,0,0,0,0,0,0,0,0,0,0,0,0,0,5825,5826,5827,5828,5829,5830,5831,5832,5833,5834,5835,5836,5837,5838,5839,5840,5841,5842,0,0,0,0,0,0,0,0,0,0,0,0,0,0,0,0,0,0,0,0,0,0,0,0,0,0,0,0,0,0,0,0,0,0,0,0,0,0,0,0,0,0,0,0,0,0,0,0,0,0,0,0,0,0,0,0,0,0,0,0,0,0,0,0,0,0,0,0,0,0,0,0,0,0,0,0,0,0,0,0,0,0,0,0,0,0,0,0,0,5101,5102,5103,5104,5105,5106,5107,5108,5109,5110,0,0,0,1506,1507,1508,2976,3040,3040,2272,2272,2208,2208,2208,2209,2977,2272,2976,2273,2977,2153,2278,2214,1962,2725,2726,2727,2028,2028,0,0,0,0,0,0,0,0,0,
1506,1507,2917,2918,2917,2918,2915,2916,2917,2915,2916,2917,2915,2916,2917,2918,2916,2915,2916,2917,2918,2918,2918,2918,2915,2916,2917,2918,2917,2918,2915,2916,2917,2918,2917,2915,2916,2917,2918,2917,2915,2916,2917,2918,2915,2916,2917,2918,2915,2916,2917,2918,2918,2917,2918,2915,2916,2917,2918,2918,2915,2917,2918,2915,2916,2917,1445,1446,1447,1321,1322,1323,1323,0,0,0,0,0,0,0,0,0,0,0,0,0,0,0,0,0,0,0,0,0,0,0,0,0,1442,1443,1444,2918,2915,2916,2917,2915,2916,2917,2915,2916,2917,2918,2916,2915,2916,2917,2918,2918,2918,2918,2915,2916,2917,2918,2917,2918,2915,2916,2917,2918,2917,2915,2916,2917,1445,1446,1447,1448,1448,0,0,0,0,0,0,0,0,0,0,0,0,0,0,2527,2528,2527,2527,2527,2527,5333,5334,5335,5336,5337,5338,5339,5340,5341,5342,0,0,0,0,0,0,0,0,0,0,0,0,0,0,0,0,0,0,0,0,0,0,0,0,0,2142,2143,2144,2209,2272,2144,2145,2146,2336,2337,2272,2273,2274,1510,1511,1381,1382,1448,1448,0,0,6084,6085,2925,2925,2925,2861,2861,2861,2861,2861,2861,2862,2863,2925,6125,6126,6127,6128,6129,6130,2724,2463,2464,2465,2463,2464,2465,2463,2464,2463,2464,2663,2664,2861,2862,2863,2663,2415,2416,2722,2723,2724,2463,2464,2465,2463,2464,2465,2463,2464,2463,2464,2663,2664,0,0,0,0,0,5320,5321,5322,5323,5324,0,0,0,0,0,0,0,0,0,0,0,0,0,0,1513,1514,1632,6171,1633,1632,1513,1514,0,0,0,0,0,0,0,0,0,0,0,1513,1513,1514,1632,1633,6164,6165,1513,1514,0,0,0,0,0,0,0,0,0,0,0,1513,1513,1514,1632,1633,6171,1632,1513,1514,0,0,0,0,0,0,0,0,0,0,1513,1514,1632,6171,1633,1632,1513,1514,0,0,0,0,0,0,1378,1379,1380,6164,6165,6171,2853,2851,2852,2853,2851,2852,6164,6165,6171,2851,2852,6275,6276,6277,6278,1381,1382,1383,1384,1384,0,0,0,0,0,0,0,0,0,0,1316,1317,0,0,0,0,0,0,0,0,1316,1317,0,0,0,0,0,0,0,0,1316,1317,0,0,0,0,0,0,0,0,1316,1317,0,0,0,0,0,0,0,0,1316,1317,0,0,5889,5890,5891,5892,5893,5894,5895,5896,5897,5898,5899,5900,5901,5902,5903,5904,5905,5906,5907,0,0,0,0,0,0,0,0,0,0,0,0,0,0,0,0,0,0,0,0,0,0,0,0,0,0,0,0,0,0,0,0,0,0,0,0,0,0,0,0,0,0,0,0,0,0,0,0,0,0,0,0,0,0,0,0,0,0,0,0,0,0,0,0,0,0,0,0,0,0,0,0,0,0,0,0,0,0,0,0,0,0,0,0,0,0,0,0,5165,5166,5167,5168,5169,5170,5171,5172,5173,5174,0,0,1950,1951,2976,2976,3040,3041,3042,2336,2336,2272,2272,2272,2208,2208,2209,2208,2337,3041,2217,2342,2278,2026,2027,1385,2289,1321,2225,2225,0,0,0,0,0,0,0,0,
1951,1571,2978,2979,2976,2977,2978,2976,2976,2976,2976,2977,2976,2208,2209,2976,2976,2976,2977,2978,2976,2976,2976,2976,2977,2978,2979,2976,2977,2978,2976,2977,2978,2979,2185,2186,2976,2976,2976,2977,2978,2977,2976,2976,2977,2978,2976,2977,2978,2977,2978,2978,2976,2976,2977,2978,2977,2978,2978,2976,2977,2976,2977,2978,2977,2978,2978,1509,1511,1385,1386,1387,1323,0,0,0,0,0,0,0,0,0,0,0,0,0,0,0,0,0,0,0,0,0,0,0,0,0,1506,1507,1508,2977,2978,2976,2976,2976,2976,2977,2976,2208,2209,2976,2976,2976,2977,2978,2976,2976,2976,2976,2977,2978,2979,2976,2977,2978,2976,2977,2978,2979,2185,2186,2976,2976,1509,1510,1511,1381,1382,1383,1384,0,0,0,0,0,0,0,0,0,0,0,0,2527,2528,2528,2528,2528,2528,5397,5398,5399,5400,5401,5402,5403,5404,5405,5406,0,0,0,0,0,0,0,0,0,0,0,0,0,0,0,0,0,0,0,0,0,0,0,0,0,2014,2015,2016,2209,2336,2144,2145,2146,2147,2339,2336,2337,2338,1574,1575,1445,1446,1381,1382,1383,1384,6148,6149,0,0,0,2925,2925,2925,2925,2925,2925,2926,2927,0,6189,6190,6191,6192,6193,6194,0,2479,2480,0,0,0,0,0,0,0,0,0,0,2925,2926,2927,0,0,0,0,0,0,0,0,0,0,0,0,0,0,0,0,0,0,0,0,0,0,5383,5384,5385,5386,5387,5388,0,2158,2159,2160,2161,0,0,0,0,0,0,0,0,0,2654,1506,1696,1696,1696,1696,1511,2655,0,0,0,0,0,0,0,0,0,0,0,2654,2654,1506,1696,1696,1696,1696,1511,2655,0,0,0,0,0,0,0,0,0,0,0,2654,2654,1506,1696,1696,1696,1696,1511,2655,0,0,0,0,0,0,0,0,0,0,2654,1506,1696,1696,1696,1696,1511,2655,0,0,0,0,0,0,1442,1443,1444,2918,2915,2916,2917,2915,2916,2917,2915,2916,2917,2918,2916,2915,2916,2917,2918,2916,2917,1445,1446,1447,1448,1448,0,0,0,0,0,0,0,0,0,0,1448,1448,0,0,0,0,0,0,0,1448,1448,1448,0,0,0,0,0,0,0,1448,1448,1448,0,0,0,0,0,0,0,1448,1448,1448,0,0,0,0,0,0,0,1448,1448,1448,0,0,0,5954,5955,5956,5957,5958,5959,5960,5961,5962,5963,5964,5965,5966,5967,5968,5969,5970,5971,0,0,0,0,0,0,0,0,0,0,0,0,0,0,0,0,0,0,0,0,0,0,0,0,0,0,0,0,0,0,0,0,0,0,0,0,0,0,0,0,0,0,0,0,0,0,0,0,0,0,0,0,0,0,0,0,0,0,0,0,0,0,0,0,0,0,0,0,0,0,0,0,0,0,0,0,0,0,0,0,0,0,0,0,0,0,0,0,5229,5230,5231,5232,5233,5234,5235,5236,5237,5238,0,0,2078,2079,2979,2976,3040,2208,2208,2208,2209,2209,2209,2978,2208,2208,2209,2272,2976,3040,2281,2281,2342,2090,2091,1385,2353,1385,2289,2289,0,0,0,0,0,0,0,0,
2015,3041,3042,2976,2976,2977,2978,2979,3040,3040,3040,2976,3040,2208,2209,3040,3040,2976,2977,2978,3040,3040,3040,2976,2977,2978,2979,3040,3041,3042,3040,3041,3042,3043,2249,2976,2977,3040,3040,3041,3042,2976,3040,3040,3041,3042,3040,2340,2340,2341,3042,3042,2978,2978,2340,2341,3042,2976,2977,2978,2150,2150,2150,2150,2150,2151,2152,2153,1962,1963,1321,1322,1323,1323,0,0,0,0,0,0,0,0,0,0,0,0,0,0,0,0,0,0,0,0,0,1948,1949,1950,1951,2976,2976,2977,2978,2979,3040,3040,3040,2976,3040,2208,2209,3040,3040,2976,2977,2978,3040,3040,3040,2976,2977,2978,2979,3040,3041,3042,3040,3041,3042,3043,2249,2976,2977,3040,1573,1574,1575,1445,1446,1447,1448,0,0,0,0,0,0,0,0,0,0,0,0,2591,2592,2592,2592,2592,2592,5461,5462,5463,5464,5465,5466,5467,5468,5469,5470,0,0,0,0,0,0,0,0,0,0,0,0,0,0,0,0,0,0,0,0,0,0,0,0,0,2078,2079,2080,2209,2209,2144,2145,2146,2147,2144,2145,2146,2336,3105,3106,1509,1510,1445,1446,1447,6211,6212,6213,6214,0,0,0,0,0,0,0,0,0,0,0,6253,6254,6255,6256,6257,6258,0,0,0,0,0,0,0,0,0,0,0,0,0,0,0,0,0,0,0,0,0,0,0,0,0,0,0,0,0,0,0,0,0,0,0,0,0,5446,5447,5448,5449,5450,5451,5452,5453,2222,2223,2224,2225,0,0,0,0,0,0,0,0,0,2718,2594,2595,2596,2597,2598,2599,2719,0,0,0,0,0,0,0,0,0,0,0,2718,2718,2594,2595,2596,2597,2598,2599,2719,0,0,0,0,0,0,0,0,0,0,0,2718,2718,2594,2595,2596,2597,2598,2599,2719,0,0,0,0,0,0,0,0,0,0,2718,2594,2595,2596,2597,2598,2599,2719,0,0,0,0,0,0,1506,1507,1508,2977,2978,2976,2976,2976,2976,2977,2976,2208,2209,2976,2976,2976,2977,2978,2976,2976,2976,1509,1510,1511,1381,1382,0,0,0,0,0,0,0,0,0,0,6164,6165,0,0,0,0,0,0,0,1568,6164,6165,0,0,0,0,1567,1568,1567,1568,6164,6165,0,0,0,0,1567,1568,1567,1568,6167,6168,0,0,0,0,1567,1568,1567,1568,1443,1446,0,0,0,6018,6019,6020,6021,6022,6023,6024,6025,6026,6027,6028,6029,6030,6031,6032,6033,6034,0,0,0,0,0,0,0,0,0,0,0,0,0,0,0,0,0,0,0,0,0,0,0,0,0,0,0,0,0,0,0,0,0,0,0,0,0,0,0,0,0,0,0,0,0,0,0,0,0,0,0,0,0,0,0,0,0,0,0,0,0,0,0,0,0,0,0,0,0,0,0,0,0,0,0,0,0,0,0,0,0,0,0,0,0,0,0,0,0,5293,5294,5295,5296,5297,5298,5299,5300,5301,5302,2527,2527,2910,2911,2976,3040,3040,2272,2272,2208,2208,2208,2209,2977,2272,2272,2273,2336,2273,3043,2341,2345,2345,2154,2155,1385,2417,1385,2353,2353,0,0,0,0,0,0,0,0,
1951,2977,2978,2979,3040,3041,3042,3043,3041,3042,3043,3040,3104,2208,2209,2977,2976,3040,3041,2208,2209,2979,2979,2976,2208,2209,2208,2208,2209,2340,2341,3041,3042,3043,2979,2976,2977,2978,3104,3105,3106,3040,3104,3104,3105,2340,2341,2404,2340,2341,3106,3106,3042,3042,2404,2405,3106,3040,3041,3042,2214,2340,2341,2152,2153,2151,2150,2150,2026,2027,1385,1386,1387,1323,0,0,0,0,0,0,0,0,0,0,0,0,0,0,0,0,0,0,0,0,0,2012,2013,2014,2015,2979,3040,3041,3042,3043,3041,3042,3043,3040,3104,2208,2209,2977,2976,3040,3041,2208,2209,2979,2979,2976,2208,2209,2208,2208,2209,2340,2341,3041,3042,3043,2979,2976,2977,2978,3104,3105,3106,1509,1510,1511,6171,2854,2851,2852,2853,2854,2853,2852,2853,2854,2853,2854,6171,2853,2852,2853,2851,2852,2853,5525,5526,5527,5528,5529,5530,5531,5532,5533,5534,2853,2854,2853,2851,2852,2853,2854,6171,2852,2851,2852,2853,2854,2853,6299,2853,2854,2853,2854,2854,2853,2854,6171,2854,2851,1443,2079,2144,2208,2208,2144,2144,2144,2144,2208,2273,3106,2144,2144,2272,2273,2274,2274,1510,1511,6275,6276,6277,6278,2851,2852,2853,2854,2853,2852,6299,2851,2852,2853,2851,2852,2853,2854,6171,2852,2853,2851,2852,2853,2854,2853,2852,2853,2852,2853,2854,2853,2852,6171,2851,2852,2853,6171,2852,2853,2854,2853,2852,2853,2851,2852,2853,2851,2852,2853,2854,2853,2852,2853,6171,2852,2853,2852,5510,5511,5512,5513,5514,5515,5516,5517,2853,1386,1319,1320,2990,2160,2161,0,0,0,0,0,0,0,2658,2659,2660,2661,6071,6072,6073,6074,6075,6076,0,0,0,0,0,0,0,0,0,1627,2658,2659,2660,2661,2662,2663,2526,0,0,0,0,0,0,0,0,0,0,0,0,1627,2658,2659,2660,2661,6071,6072,6073,6074,6075,6076,0,0,0,0,0,0,0,0,2658,2659,2660,2661,2662,2663,2526,0,0,0,1948,1949,1950,1951,2976,2976,2977,2978,2979,3040,3040,3040,2976,3040,2208,2209,3040,3040,2976,2977,2978,3040,2977,3040,1573,1574,1575,1445,1446,1381,1382,1383,1384,1384,0,0,0,0,1950,1951,1962,1963,0,0,0,0,0,1568,1950,1951,1962,1963,0,0,0,1567,1567,1568,1950,1951,1962,1963,0,0,0,1567,1567,1568,1950,1951,1962,1963,0,0,0,1567,1567,1568,1950,1951,1962,1963,0,0,6082,6083,6084,6085,6086,6087,6088,6089,6090,6091,6092,6093,6094,6095,6096,6097,0,0,0,0,0,0,0,0,0,0,0,0,0,0,0,0,0,0,0,0,0,0,0,0,0,0,0,0,0,0,0,0,0,0,0,0,0,0,0,0,0,0,0,0,0,0,0,0,0,0,0,0,0,0,0,0,0,0,0,0,0,0,0,0,0,0,0,0,0,0,0,0,0,0,0,0,0,0,0,0,0,0,0,0,0,0,0,0,0,0,5357,5358,5359,5360,5361,5362,5363,5364,5365,5366,2591,2591,2910,2911,3040,3041,3042,2336,2336,2272,2272,2272,2208,2208,2209,2336,2337,2208,2337,2978,2340,2341,2343,1962,1963,1385,2481,1385,2417,2417,0,0,0,0,0,0,0,0,
1951,3041,3042,2976,2977,2978,2979,2979,3040,3041,3042,2976,2976,2272,2273,2978,2976,3104,3105,2208,2208,2209,3043,2976,2272,2273,2209,2272,2273,2404,2405,3040,3041,3042,2976,3040,3041,3042,3104,3105,3104,3104,3040,3041,3042,2404,2405,2468,2404,2405,2340,2341,3106,2976,2468,2469,2209,3104,3105,3106,2278,2404,2405,2216,2217,2152,2214,2150,2090,2091,1385,1386,1387,1387,0,0,0,0,0,0,0,0,0,0,0,0,0,0,0,0,0,0,0,0,0,2076,2077,2078,2079,2976,2977,2978,2979,2979,3040,3041,3042,2976,2976,2272,2273,2978,2976,3104,3105,2208,2208,2209,3043,2976,2272,2273,2209,2272,2273,2404,2405,3040,3041,3042,2976,3040,3041,3042,3104,3105,3104,1573,1574,1575,2918,2918,2915,2916,2917,2918,2917,2916,2917,2918,2917,2918,2918,2917,2916,2917,2915,2916,2917,2918,2917,2916,2917,2915,2916,2917,2918,2917,2916,2917,2918,2917,2915,2916,2917,2918,2917,2916,2915,2916,2917,2918,2917,2916,2917,2918,2917,2918,2918,2917,2918,2917,2918,2915,2916,1699,2208,2208,2208,2208,2208,2209,2976,2336,2208,2209,2208,2144,3040,2209,2976,3040,3040,1575,2918,2917,2916,2917,2915,2916,2917,2918,2917,2916,2917,2915,2916,2917,2915,2916,2917,2918,2917,2916,2917,2915,2916,2917,2918,2917,2916,2917,2916,2917,2918,2917,2916,2917,2915,2916,2917,2915,2916,2917,2918,2917,2916,2917,2915,2916,2917,2915,2916,2917,2918,2917,2916,2917,2915,2916,2917,2916,2917,2915,2916,2917,2915,2916,2917,2918,2917,1445,1446,1447,1321,1322,2225,0,0,0,0,0,0,0,2722,2723,2724,2725,6135,6136,6137,6138,6139,6140,0,0,0,0,0,0,0,0,0,2722,2722,2723,2724,2725,2726,2727,1514,0,0,0,0,0,0,0,0,0,0,0,0,2722,2722,2723,2724,2725,6135,6136,6137,6138,6139,6140,0,0,0,0,0,0,0,0,2722,2723,2724,2725,2726,2727,1514,0,0,0,2012,2013,2014,2015,2979,3040,3041,3042,3043,3041,3042,3043,3040,3104,2208,2209,2977,2976,3040,3041,2208,2209,2977,2978,3104,3105,3106,1509,1510,1445,1446,1447,1448,1448,0,0,0,0,2014,2015,1962,1963,0,0,0,0,0,1568,2014,2015,1962,1963,0,0,0,0,1567,1568,2014,2015,1962,1963,0,0,0,0,1567,1568,2014,2015,1962,1963,0,0,0,0,1567,1568,2014,2015,1962,1963,0,0,0,6147,6148,6149,6150,0,0,6153,6154,6155,6156,6157,6158,6159,6160,6161,0,0,0,0,0,0,0,0,0,0,0,0,0,0,0,0,0,0,0,0,0,0,0,0,0,0,0,0,0,0,0,0,0,0,0,0,0,0,0,0,0,0,0,0,0,0,0,0,0,0,0,0,0,0,0,0,0,0,0,0,0,0,0,0,0,0,0,0,0,0,0,0,0,0,0,0,0,0,0,0,0,0,0,0,0,0,0,0,0,0,5421,5422,5423,5424,5425,5426,5427,5428,5429,5430,2591,2591,2910,2975,3043,3040,2208,2208,2209,2336,2336,2336,2272,2208,2209,2208,2209,2208,3041,3042,2404,2405,2150,2026,2027,1385,2545,1385,2481,2481,0,0,0,0,0,0,0,0,
1951,2977,2978,2979,3041,3042,3043,3043,3040,2976,2976,3040,3040,2336,2208,2209,3040,2976,2976,2272,2208,2209,3043,2979,2336,2337,2273,2336,2337,2468,2469,2209,2976,2977,2978,3104,3105,3106,2978,2208,2209,2209,2978,2978,3106,2468,2469,2532,2468,2469,2404,2405,3105,3040,2532,2533,2273,2978,2977,2978,2342,2468,2469,2152,2153,2153,2278,2214,1962,1963,1321,1385,1386,1387,0,0,0,0,0,0,0,0,0,0,0,0,0,0,0,0,0,0,0,0,0,1948,1949,1950,1951,2979,3041,3042,3043,3043,3040,2976,2976,3040,3040,2336,2208,2209,3040,2976,2976,2272,2208,2209,3043,2979,2336,2337,2273,2336,2337,2468,2469,2209,2976,2977,2976,2272,2208,2209,3043,2979,2976,2272,2208,2209,3043,2979,2336,2337,2273,2336,2337,2468,2469,2209,2976,2977,2978,3104,2144,2145,2336,2337,2273,2336,2337,2468,2469,2336,2337,2273,2336,2337,2468,2469,2209,2976,2336,2337,2273,2336,2337,2468,2336,2337,2273,2336,2337,2468,2469,2209,2976,2977,2978,2469,2209,2976,2977,2978,3104,2144,2145,2146,2272,2272,2208,2208,3040,2209,2976,3040,3040,2272,2209,2273,3040,2976,2977,3042,2976,3040,2976,2336,2208,2209,2976,3040,3040,2272,2273,3043,2976,3040,3040,2272,2273,3043,3043,3040,3041,3042,2976,3040,2976,2336,2208,2209,2209,2976,3040,3040,2272,2273,3043,2976,3040,3040,2209,2976,3040,3040,2272,2273,3043,2976,3040,3040,2272,2273,3043,3043,3040,3041,3042,2976,3040,2272,2273,3043,2976,3040,3040,2272,2273,3043,2978,2978,1509,1511,1385,1386,2289,0,0,0,0,0,0,0,0,0,0,0,6199,6200,6201,6202,6203,6204,0,0,0,0,0,0,0,0,0,0,0,0,0,0,0,0,0,0,0,0,0,0,0,0,0,0,0,0,0,0,0,0,0,0,6199,6200,6201,6202,6203,6204,0,0,0,0,0,0,0,0,0,0,0,0,0,0,0,0,0,0,2076,2077,2078,2079,2976,2977,2978,2979,2979,3040,3041,3042,2976,2976,2272,2273,2978,2976,3104,3105,2208,2208,2016,3106,2144,2144,2272,2273,2274,2275,1510,1511,1381,1382,1383,1384,0,0,2078,2079,2026,2027,0,0,0,0,0,1568,2078,2079,2026,2027,0,0,0,0,1567,1568,2078,2079,2026,2027,0,0,0,0,1567,1568,2078,2079,2026,2027,0,0,0,0,1567,1568,2078,2079,2026,5857,5858,5859,5860,6211,6212,6213,6214,0,0,6217,6218,6219,6220,0,0,6223,6224,6225,0,0,0,0,0,0,0,0,0,0,0,0,0,0,0,0,0,0,0,0,0,0,0,0,0,0,0,0,0,0,0,0,0,0,0,0,0,0,0,0,0,0,0,0,0,0,0,0,0,0,0,0,0,0,0,0,0,0,0,0,0,0,0,0,0,0,0,0,0,0,0,0,0,0,0,0,0,0,0,0,0,0,0,1378,1379,1131,1131,1131,1131,1131,5485,5486,5487,5488,5489,5490,5491,5492,5493,5494,2655,2655,2974,3103,2976,2208,2209,2208,2208,2208,2209,2208,2336,2272,2273,2208,2208,2272,2209,2336,2468,2469,2214,1962,1963,1385,2609,1321,2225,2225,0,0,0,0,0,0,0,0,
2015,3041,3042,3043,2976,2977,2978,2979,2976,3040,2208,2208,2208,2209,2209,2209,2978,2208,2209,2336,2208,2209,3043,3043,2978,2336,2337,3106,2976,2532,2533,2208,2209,2978,3042,3042,2976,2976,2208,2209,2209,2273,3042,3042,2978,2532,2533,3042,2532,2533,2468,2469,3106,3104,2272,2273,2337,2977,2340,2341,2151,2532,2533,2152,2153,2217,2342,2278,2026,2027,1385,1385,1386,1387,0,0,0,0,0,0,0,0,0,0,0,0,0,0,0,0,0,0,0,0,0,2012,2013,2014,2015,3043,2976,2977,2978,2979,2976,3040,2208,2208,2208,2209,2209,2209,2978,2208,2209,2336,2208,2209,3043,3043,2978,2336,2337,3106,2976,2532,2533,2208,2209,2978,2209,2336,2208,2209,3043,3043,2209,2336,2208,2209,3043,3043,2978,2336,2337,3106,2976,2532,2533,2208,2209,2978,3042,3042,2144,2145,2978,2336,2337,3106,2976,2532,2533,2978,2336,2337,3106,2976,2532,2533,2208,2209,2978,2336,2337,3106,2976,2532,2978,2336,2337,3106,2976,2532,2533,2208,2209,2978,3042,2533,2208,2209,2978,3042,3042,2144,2145,2146,2336,2336,2272,2272,2209,2273,3040,2976,2977,2336,2208,2337,2979,3040,3041,3106,3040,3104,3040,3040,2208,2209,3040,2976,2977,2336,2337,2978,3040,2976,2977,2336,2337,2978,2979,3104,3105,3106,3040,3104,3040,3040,2208,2209,2209,3040,2976,2977,2336,2337,2978,3040,2976,2977,2209,3040,2976,2977,2336,2337,2978,3040,2976,2977,2336,2337,2978,2979,3104,3105,3106,3040,2977,2336,2337,2978,3040,2976,2977,2336,2337,2978,2151,2152,2153,1962,1963,1321,2353,0,0,0,0,0,0,0,0,0,0,0,6263,6264,6265,6266,6267,6268,0,0,0,0,0,0,0,0,0,0,0,0,0,0,0,0,0,0,0,0,0,0,0,0,0,0,0,0,0,0,0,0,0,0,6263,6264,6265,6266,6267,6268,0,1627,1627,1627,1627,0,0,0,0,0,0,0,0,0,0,0,0,0,1948,1949,1950,1951,2979,3041,3042,3043,3043,3040,2976,2976,3040,3040,2336,2208,2209,3040,2976,2976,2272,2208,2080,2209,2208,2144,2336,2337,2338,2339,1574,1575,1445,1446,6171,2853,2854,2852,3102,2143,2090,3115,6292,6293,6294,6295,6296,6297,3102,2143,2090,3115,6292,6293,6294,6295,6296,6297,3102,2143,2090,3115,6292,6293,6294,6295,6296,6297,3102,2143,2090,3115,6292,6293,6294,6295,6296,6297,3102,2143,2090,5921,5922,5923,5924,6275,6276,6277,6278,2851,2852,6281,6282,6283,6284,2853,2851,6287,6288,6289,2854,6167,6168,2851,2852,2853,2854,2854,2851,6167,6168,2851,2852,2853,1386,1319,1320,2990,0,0,0,0,0,0,0,0,0,0,0,0,0,0,0,0,0,0,0,0,0,0,0,0,0,0,0,0,0,0,0,0,0,0,0,0,0,0,0,0,0,0,0,0,0,0,0,0,0,0,0,0,0,0,0,0,0,0,0,0,0,0,0,0,0,1378,1379,1380,6167,6168,2852,2853,5549,5550,5551,5552,5553,5554,5555,5556,5557,5558,2852,2853,3102,1635,2976,2272,2273,2272,2272,2208,2208,2272,2273,2336,2337,2272,2272,2208,2273,2977,2532,2533,2278,2026,2027,1385,2673,1385,2289,2289,0,0,0,0,0,0,0,0,
2079,2977,2208,2209,3040,3041,3042,2976,3040,3040,2272,2272,2208,2208,2208,2209,2977,2272,2273,2977,2272,2208,2209,3043,2978,2979,3043,2976,2977,2978,2336,2208,2209,3042,2976,2977,3040,2976,2272,2273,2273,2337,3106,3106,3042,2978,2978,3106,2976,2977,2532,2533,3106,3104,2336,2337,3040,3041,2404,2405,2151,2150,2151,2152,2153,2281,2281,2342,2090,2091,1385,1386,1387,1323,0,0,0,0,0,0,0,0,0,0,0,0,0,0,0,0,0,0,0,0,0,2076,2077,2078,2079,2209,3040,3041,3042,2976,3040,3040,2272,2272,2208,2208,2208,2209,2977,2272,2273,2977,2272,2208,2209,3043,2978,2979,3043,2976,2977,2978,2336,2208,2209,3042,2273,2977,2272,2208,2209,3043,2273,2977,2272,2208,2209,3043,2978,2979,3043,2976,2977,2978,2336,2208,2209,3042,2976,2144,2208,2209,2978,2979,3043,2976,2977,2978,2336,2978,2979,3043,2976,2977,2978,2336,2208,2209,2978,2979,3043,2976,2977,2978,2978,2979,3043,2976,2977,2978,2336,2208,2209,3042,2976,2336,2208,2209,3042,2976,2144,2208,2209,2210,2211,2272,2273,2274,2208,2337,2979,3040,3041,3042,3041,3042,3040,2208,2208,2208,2209,2209,2209,2978,2208,2209,2979,3040,3041,3042,3041,3042,2979,3040,3041,3042,3041,3042,3040,2208,2208,2208,2209,2209,2209,2978,2208,2209,2209,2979,3040,3041,3042,3041,3042,2979,3040,3041,2209,2979,3040,3041,3042,3041,3042,2979,3040,3041,3042,3041,3042,3040,2208,2208,2208,2209,3041,3042,3041,3042,2979,3040,3041,3042,3041,3042,2151,2150,2150,2026,2027,1385,2417,0,0,0,0,0,0,0,0,0,0,0,0,0,0,0,0,0,0,0,0,0,0,0,0,0,0,0,0,0,0,0,0,0,0,0,0,0,0,0,0,0,0,0,0,0,0,0,0,0,0,0,0,1627,1627,1627,1627,1627,1627,0,0,0,0,0,0,0,0,0,0,0,0,0,0,0,0,0,2012,2013,2014,2015,3043,2976,2977,2978,2979,2976,3040,2208,2208,2208,2209,2209,2209,2978,2208,2209,2208,2209,2977,2272,2273,2977,2272,2977,2272,2273,2977,2272,1573,1575,2916,2917,2918,2916,2915,1699,1702,2917,2917,2918,2916,2915,2918,2916,2915,1699,1702,2917,2917,2918,2916,2915,2918,2916,2915,1699,1702,2917,2917,2918,2916,2915,2918,2916,2915,1699,1702,2917,2917,2918,2916,2915,2918,2916,2915,1699,1702,2917,2917,2918,2916,2917,2915,2916,2917,2915,2916,2917,2918,2917,2916,2917,2915,2916,2917,2918,2918,2917,2918,2915,2916,2917,2918,2918,2915,2917,2918,2915,2916,2917,1445,1446,1447,1321,0,0,0,0,0,0,0,0,0,0,0,0,0,0,0,0,0,0,0,0,0,0,0,0,0,0,0,0,0,0,0,0,0,0,0,0,0,0,0,0,0,0,0,0,0,0,0,0,0,0,0,0,0,0,0,0,0,0,0,0,0,0,0,0,0,1442,1443,1444,2918,2915,2916,2917,2915,2917,2918,2915,2916,2917,2918,2916,2918,2915,2916,2917,3166,1699,2209,2209,2978,2208,2209,2336,3040,2208,2208,1763,1764,1765,2336,2272,2273,2977,2153,2278,2214,1962,1963,1321,2225,1385,2353,2353,0,0,0,0,0,0,0,0,
2143,3041,2208,2209,2976,2977,2978,3040,3041,3042,2336,2336,2272,2272,2272,2208,2208,2209,2337,3041,2336,2208,2209,3043,2979,2976,2977,2978,2977,2976,2976,2272,2273,3106,3040,3041,3104,2976,2336,2337,2337,3042,3104,3105,3106,3042,2977,2978,3040,3041,3042,3104,3105,3104,3105,3104,3104,3105,2468,2469,2152,2150,2340,2341,2340,2341,2345,2345,2154,2155,1385,1386,1387,1323,0,0,0,0,0,0,0,0,0,0,0,0,0,0,0,0,0,0,0,0,0,2140,2141,2142,2143,2209,2976,2977,2978,3040,3041,3042,2336,2336,2272,2272,2272,2208,2208,2209,2337,3041,2336,2208,2209,3043,2979,2976,2977,2978,2977,2976,2976,2272,2273,3106,2337,3041,2336,2208,2209,3043,2337,3041,2336,2208,2209,3043,2979,2976,2977,2978,2977,2976,2976,2272,2273,3106,2144,2144,2272,2273,2979,2976,2977,2978,2977,2976,2976,2979,2976,2977,2978,2977,2976,2976,2272,2273,2979,2976,2977,2978,2977,2976,2979,2976,2977,2978,2977,2976,2976,2272,2273,3106,2144,2976,2272,2273,3106,2144,2144,2272,2273,2274,2275,2336,2337,2338,2272,2209,2209,2209,2978,2208,2209,2336,3040,2272,2272,2208,2208,3040,2208,2208,2208,2209,2209,2209,2978,2208,2209,2336,2209,2209,2978,2208,2209,2336,3040,2272,2272,2208,2208,3040,2208,2208,2208,2209,2209,2209,2209,2978,2208,2209,2336,2209,2209,2978,2209,2209,2209,2978,2208,2209,2336,2209,2209,2978,2208,2209,2336,3040,2272,2272,2208,2208,2978,2208,2209,2336,2209,2209,2978,2208,2209,2336,2152,2214,2150,2090,2091,1385,2161,0,0,0,0,0,0,0,0,0,0,0,0,0,0,0,0,0,0,0,0,0,0,0,0,0,0,0,0,0,0,0,0,0,0,0,0,0,0,0,0,0,0,0,0,0,0,0,0,0,0,0,0,0,0,0,0,0,0,0,0,0,0,0,0,0,0,0,0,0,0,0,0,0,0,0,2076,2077,2078,2079,2209,3040,3041,3042,2976,3040,3040,2272,2272,2208,2208,2208,2209,2977,2272,2273,2272,2208,2208,2209,2337,3041,2336,2208,2209,2337,3041,2336,1573,1573,2208,2209,2976,2976,2976,2978,2979,2979,3040,3041,3042,2976,2976,2272,2978,2979,2979,3040,3041,3042,2976,2976,2272,2273,2978,2976,3104,3105,2208,2208,2016,2976,2272,2273,2978,2976,3104,3105,2208,2208,2976,2272,2273,2978,2976,3104,3105,2208,2208,2016,2272,2273,3043,2976,3040,3040,2209,2976,3040,3040,2272,2273,3043,2976,2978,2978,2976,2976,2977,2978,2977,2978,2978,2976,2977,2976,2977,2978,2977,2978,2978,1509,1511,1385,0,0,0,0,0,0,0,0,0,0,0,0,0,0,0,0,0,0,0,0,0,0,0,0,0,0,0,0,0,0,0,0,0,0,0,0,0,0,0,0,0,0,0,0,0,0,0,0,0,0,0,0,0,0,0,0,0,0,0,0,0,0,1948,1949,1131,1506,1507,1508,2977,2978,2976,2976,2976,2976,2977,2976,2208,2209,2976,2976,2977,2978,2976,2976,2976,3040,2208,2209,2977,2272,2273,2977,3040,2272,2272,2208,2208,2336,2336,2209,2337,3041,2217,2342,2278,2026,2027,1385,2289,1385,2417,2417,0,0,0,0,0,0,0,0,
1951,3041,2272,2208,2209,3041,3042,3043,3040,2208,2208,2209,2336,2336,2336,2272,2208,2209,2976,3040,3040,2272,2273,3043,3043,3040,3041,3042,2976,3040,2976,2336,2208,2209,2977,2208,2209,2976,2977,3104,3105,3106,3040,3104,3105,3106,2976,2976,3104,3105,3106,3040,2976,2340,2341,3106,3106,3042,2532,2533,2152,2214,2404,2405,2404,2340,2341,2343,1962,1963,1385,1386,1387,1323,0,0,0,0,0,0,0,0,0,0,0,0,0,0,0,0,0,0,0,0,0,1948,1949,1950,1951,2208,2209,3041,3042,3043,3040,2208,2208,2209,2336,2336,2336,2272,2208,2209,2976,3040,3040,2272,2273,3043,3043,3040,3041,3042,2976,3040,2976,2336,2208,2209,2976,3040,3040,2272,2273,3043,2976,3040,3040,2272,2273,3043,3043,3040,3041,3042,2976,3040,2976,2336,2208,2209,2208,2144,2336,2337,3043,3040,3041,3042,2976,3040,2976,3043,3040,3041,3042,2976,3040,2976,2336,2208,3043,3040,3041,3042,2976,3040,3043,3040,3041,3042,2976,3040,2976,2336,2208,2209,2208,2976,2336,2208,2209,2209,2976,3040,3040,2272,2273,3043,3043,3040,3041,2208,2208,2209,2977,2272,2273,2977,3042,2336,2336,2272,2272,3040,2272,2272,2208,2208,2208,2209,2977,2272,2273,2977,2208,2209,2977,2272,2273,2977,3042,2336,2336,2272,2272,3040,2272,2272,2208,2208,2208,2208,2209,2977,2272,2273,2977,2208,2209,2977,2208,2208,2209,2977,2272,2273,2977,2208,2209,2977,2272,2273,2977,3042,2336,2336,2272,2272,2977,2272,2273,2977,2208,2209,2977,2272,2273,2977,2153,2278,2214,1962,1963,1321,2225,0,0,0,0,0,0,0,0,0,0,0,0,0,0,0,0,0,0,0,0,0,0,0,0,0,0,0,0,0,0,0,0,0,0,0,0,0,0,0,0,0,0,0,0,0,0,0,0,0,0,0,0,0,0,0,0,0,0,0,0,0,0,0,0,0,0,0,0,0,0,0,0,0,0,0,2140,2141,2142,2143,2209,2976,2977,2978,3040,3041,3042,2336,2336,2272,2272,2272,2208,2208,2209,2337,2336,2272,2208,2209,2976,3040,3040,2208,2209,2976,3040,3040,1573,1573,2208,2209,2977,2272,2273,3042,3043,3043,3040,2976,2976,3040,3040,2336,3042,3043,3043,3040,2976,2976,3040,3040,2336,2208,2209,3040,2976,2976,2272,2208,2080,3040,2336,2208,2209,3040,2976,2976,2272,2208,3040,2336,2208,2209,3040,2976,2976,2272,2208,2080,2336,2337,2208,2209,2977,2272,2273,2272,2208,2208,2208,2208,2209,2977,3042,3042,2978,2978,2340,2341,3042,2976,2977,2978,2150,2150,2150,2150,2150,2151,2152,2153,1962,1963,0,0,0,0,0,0,0,0,0,0,0,0,0,0,0,0,0,0,0,0,0,0,0,0,0,0,0,0,0,0,0,0,0,0,0,0,0,0,0,0,0,0,0,0,0,0,0,0,0,0,0,0,0,0,0,0,0,0,0,0,0,0,1948,1949,1950,1951,2976,2976,2977,2978,2979,3040,3040,3040,2976,3040,2208,2209,3040,3040,2977,2978,2979,3040,3040,3043,2208,2209,2209,2209,2978,2208,2209,2336,2208,2978,2208,2209,2336,2208,2976,3040,2281,2281,2342,2090,2091,1385,2353,1321,2225,2225,0,0,0,0,0,0,0,0,
1951,3041,2336,2272,2273,3043,2979,2976,2208,2209,2208,2208,2208,2209,2208,2336,2272,2273,3040,2976,2977,2336,2337,2978,2979,3104,3105,3106,3040,3104,3040,3040,2208,2209,2976,2208,2208,2209,2976,2976,3040,3040,3104,3104,3105,3106,3040,3040,3040,3040,3104,3104,2976,2404,2405,3105,3106,3106,2340,2341,2150,2278,2468,2469,2468,2404,2405,2150,2026,2027,1385,1386,1387,1323,2160,0,0,0,0,0,0,0,0,0,0,0,0,0,0,0,0,0,0,0,0,2012,2013,2014,2015,2272,2273,3043,2979,2976,2208,2209,2208,2208,2208,2209,2208,2336,2272,2273,3040,2976,2977,2336,2337,2978,2979,3104,3105,3106,3040,3104,3040,3040,2208,2209,3040,2976,2977,2336,2337,2978,3040,2976,2977,2336,2337,2978,2979,3104,3105,3106,3040,3104,3040,3040,2208,2209,2272,2144,2145,2146,2979,3104,3105,3106,3040,3104,3040,2979,3104,3105,3106,3040,3104,3040,3040,2208,2979,3104,3105,3106,3040,3104,2979,3104,3105,3106,3040,3104,3040,3040,2208,2209,2272,3040,3040,2208,2209,2273,3040,2976,2977,2336,2337,2978,2979,3104,3105,2272,2272,2208,2208,2209,2337,3041,2208,2208,2209,2336,2336,3042,2336,2336,2272,2272,2272,2208,2208,2209,2337,3041,2272,2208,2208,2209,2337,3041,2208,2208,2209,2336,2336,3042,2336,2336,2272,2272,2272,2272,2208,2208,2209,2337,3041,2272,2208,2208,2272,2272,2208,2208,2209,2337,3041,2272,2208,2208,2209,2337,3041,2208,2208,2209,2336,2336,2208,2209,2337,3041,2272,2208,2208,2209,2337,3041,2217,2342,2278,2026,2027,1385,2289,0,0,0,0,0,0,0,0,0,0,0,0,0,0,0,0,0,0,0,0,0,0,0,0,0,0,0,0,0,0,0,0,0,0,0,0,0,0,0,0,0,0,0,0,0,0,0,0,0,0,0,0,0,0,0,0,0,0,0,0,0,0,0,0,0,0,0,0,0,0,0,0,0,0,0,1948,1949,1950,1951,2208,2209,3041,3042,3043,3040,2208,2208,2209,2336,2336,2336,2272,2208,2209,2976,2208,2209,2977,2272,2273,2977,2208,2209,2977,2272,2273,2208,2209,2977,2272,2273,2977,2272,2337,2977,2978,2979,2976,3040,2208,2208,2208,2209,2977,2978,2979,2976,3040,2208,2208,2208,2209,2209,2209,2978,2208,2209,2208,2209,2977,2208,2209,2209,2209,2978,2208,2209,2208,2209,2208,2209,2209,2209,2978,2208,2209,2208,2209,2977,3042,3041,2272,2208,2208,2209,2337,2336,2272,2272,2272,2272,2208,2208,3106,3106,3042,3042,2404,2405,3106,3040,3041,3042,2214,2340,2341,2152,2153,2151,2150,2150,2026,2027,0,0,0,0,0,0,0,0,0,0,0,0,0,0,0,0,0,0,0,0,0,0,0,0,0,0,0,0,0,0,0,0,0,0,0,0,0,0,0,0,0,0,0,0,0,0,0,0,0,0,0,0,0,0,0,0,0,0,0,0,0,0,2012,2013,2014,2015,2979,3040,3041,3042,3043,3041,3042,3043,3040,3104,2208,2209,2977,2976,3041,3042,3043,3041,3042,3042,2208,2208,2208,2209,2977,2272,2273,2977,2272,2977,2272,2273,2977,2272,2273,2977,2153,2278,2214,1962,1963,1321,2225,1385,2289,2289,0,0,0,0,0,0,0,0,
2015,2977,2978,2336,2337,3043,3043,2976,2272,2273,2272,2272,2208,2208,2272,2273,2336,2337,2979,3040,3041,3042,3041,3042,2976,2977,2978,2978,2978,3105,3104,3104,2208,2209,3040,2272,2272,2273,3040,2208,2209,3104,3104,3105,3106,3104,3104,3104,3104,3104,3104,3105,3040,2468,2469,3040,3041,3042,2404,2405,2214,2342,2532,2533,2532,2468,2469,2214,1962,1963,1385,1386,1387,1323,2160,0,0,0,0,0,0,0,0,0,0,0,0,0,0,0,0,0,0,0,0,2076,2077,2078,2079,2336,2337,3043,3043,2976,2272,2273,2272,2272,2208,2208,2272,2273,2336,2337,2979,3040,3041,3042,3041,3042,3040,2208,2208,2208,2209,2209,2209,2978,2208,2209,2979,3040,3041,3042,3041,3042,2979,3040,3041,3042,3041,3042,3040,2208,2208,2208,2209,2209,2209,2978,2208,2209,2336,2144,2145,2146,3040,2208,2208,2208,2209,2209,2209,3040,2208,2208,2208,2209,2209,2209,2978,2208,3040,2208,2208,2208,2209,2209,3040,2208,2208,2208,2209,2209,2209,2978,2208,2209,2336,2209,2978,2208,2209,2337,2979,3040,3041,3042,3041,3042,3040,2208,2208,2336,2336,2272,2208,2209,2976,3040,2209,2208,2208,2208,2209,2208,2208,2209,2336,2336,2336,2272,2208,2209,2976,3040,2336,2272,2208,2209,2976,3040,2209,2208,2208,2208,2209,2208,2208,2209,2336,2336,2336,2336,2272,2208,2209,2976,3040,2336,2272,2208,2336,2336,2272,2208,2209,2976,3040,2336,2272,2208,2209,2976,3040,2209,2208,2208,2208,2209,2208,2209,2976,3040,2336,2272,2208,2209,2976,3040,2281,2281,2342,2090,2091,1385,2353,0,0,0,0,0,0,0,0,0,0,0,0,0,0,0,0,0,0,0,0,0,0,0,0,0,0,0,0,0,0,0,0,0,0,0,0,0,0,0,0,0,0,0,0,0,0,0,0,0,0,0,0,0,0,0,0,0,0,0,0,0,0,0,0,0,0,0,0,0,0,0,0,0,0,0,2012,2013,2014,2015,2272,2273,3043,2979,2976,2208,2209,2208,2208,2208,2209,2208,2336,2272,2273,3040,2272,2208,2208,2209,2337,3041,2272,2208,2208,2209,2337,2272,2208,2208,2209,2337,3041,2336,2976,3041,3042,2976,3040,3040,2272,2272,2208,2208,3041,3042,2976,3040,3040,2272,2272,2208,2208,2208,2209,2977,2272,2273,2272,2208,2208,2208,2208,2208,2209,2977,2272,2273,2272,2208,2208,2208,2208,2209,2977,2272,2273,2272,2208,2208,2208,2209,2336,2272,2208,2209,2976,2208,2209,2336,2336,2336,2272,2208,2340,2341,3106,2976,2468,2469,2209,3104,3105,3106,2278,2404,2405,2216,2217,2152,2214,2150,2090,2091,0,0,0,0,0,0,0,0,0,0,0,0,0,0,0,0,0,0,0,0,0,0,0,0,0,0,0,0,0,0,0,0,0,0,0,0,0,0,0,0,0,0,0,0,0,0,0,0,0,0,0,0,0,0,0,0,0,0,0,0,0,0,2076,2077,2078,2079,2976,2977,2978,2979,2979,3040,3041,3042,2976,2976,2272,2273,2978,2976,2978,2979,2979,3040,3041,2976,2272,2272,2272,2208,2208,2209,2337,3041,2336,2208,2209,2337,3041,2336,2337,3041,2217,2342,2278,2026,2027,1385,2289,1385,2353,2353,0,0,0,0,0,0,0,0,
2079,2977,2978,2976,2976,2976,2208,2209,2336,2208,2336,2336,2272,2272,2336,2337,2273,2209,2976,3104,3105,3106,2976,2976,3040,3041,3042,3042,3042,2976,2976,2976,2272,2273,3104,2336,2336,2337,2976,2272,2273,2976,2976,2976,2208,2208,2209,2976,2976,2977,2978,2976,3104,2532,2533,3104,3105,3106,2468,2469,2278,2278,2342,2278,2278,2532,2533,2278,2026,2027,1385,1386,1387,1323,2159,2160,0,0,0,0,0,0,0,0,0,0,0,0,0,0,0,0,0,0,0,2140,2141,2142,2143,2208,2208,2208,2209,2209,2209,2978,2208,2209,2336,3040,2208,2208,2208,2209,2209,2209,2978,2208,2209,2336,3040,2272,2272,2208,2208,3040,2208,2208,2208,2209,2209,2209,2978,2208,2209,2336,2209,2209,2978,2208,2209,2336,3040,2272,2272,2208,2208,3040,2208,2208,2208,2209,2209,2144,2145,2146,3040,2272,2272,2208,2208,3040,2208,3040,2272,2272,2208,2208,3040,2208,2208,2208,3040,2272,2272,2208,2208,3040,3040,2272,2272,2208,2208,3040,2208,2208,2208,2209,2209,2208,2208,2208,2209,2209,2209,2209,2978,2208,2209,2336,3040,2272,2272,2209,2976,3040,3040,2272,2273,3043,3043,3040,3041,3042,2976,3040,2976,2336,2208,2209,2976,3040,3040,2272,2273,3043,2976,3040,3040,2272,2273,3043,3043,3040,3041,3042,2976,3040,2976,2336,2208,2209,2209,2976,3040,3040,2272,2273,3043,2976,3040,3040,2209,2976,3040,3040,2272,2273,3043,2976,3040,3040,2272,2273,3043,3043,3040,3041,3042,2976,3040,2272,2273,3043,2976,3040,3040,2272,2273,3043,2341,2345,2345,2154,2155,1385,2417,0,0,0,0,0,0,0,0,0,0,0,0,0,0,0,0,0,0,0,0,0,0,0,0,0,0,0,0,0,0,0,0,0,0,0,0,0,0,0,0,0,0,0,0,0,0,0,0,0,0,0,0,0,0,0,0,0,0,0,0,0,0,0,0,0,0,0,0,0,0,0,0,0,0,0,2076,2077,2078,2079,2336,2337,3043,3043,2976,2272,2273,2272,2272,2208,2208,2272,2273,2336,2337,2979,2336,2272,2208,2209,2976,3040,2336,2272,2208,2209,2976,2336,2272,2208,2209,2976,3040,3040,3040,2977,2978,3040,3041,3042,2336,2336,2272,2272,2977,2978,3040,3041,3042,2336,2336,2272,2272,2272,2208,2208,2209,2337,2336,2272,2208,2272,2272,2272,2208,2208,2209,2337,2336,2272,2272,2272,2272,2208,2208,2209,2337,2336,2272,2208,2272,2273,2977,2208,2209,2977,2208,2208,2209,2977,2272,2273,2977,2208,2404,2405,3105,3040,2532,2533,2273,2978,2977,2978,2342,2468,2469,2152,2153,2153,2278,2214,1962,1963,0,0,0,0,0,0,0,0,0,0,0,0,0,0,0,0,0,0,0,0,0,0,0,0,0,0,0,0,0,0,0,0,0,0,0,0,0,0,0,0,0,0,0,0,0,0,0,0,0,0,0,0,0,0,0,0,0,0,0,0,0,0,1948,1949,1950,1951,2979,3041,3042,3043,3043,3040,2976,2976,3040,3040,2336,2208,2209,3040,3042,3043,3043,3040,2976,2208,2336,2336,2336,2272,2208,2209,2976,3040,3040,2208,2209,2976,3040,3040,2976,3040,2281,2281,2342,2090,2091,1385,2353,1385,2417,2417,0,0,0,0,0,0,0,0,
2143,2341,2341,3040,3040,3040,2272,2273,3040,2208,2272,2273,2336,2336,2336,2337,2337,2273,3040,3040,2340,2340,2340,2340,2340,2340,2340,2340,2340,2340,2340,2340,2340,2340,2340,2340,2340,2340,2340,2340,2340,2340,2340,2341,2272,2272,2273,3040,3040,3041,3042,3040,3104,3105,3106,3042,3042,3042,2532,2533,2342,2342,2342,2342,2342,2342,2342,2342,1962,1963,1385,1386,1387,1387,2159,2160,0,0,0,0,0,0,0,0,0,0,0,0,0,0,0,0,0,0,0,1948,1949,1950,1951,2272,2272,2208,2208,2208,2209,2977,2272,2273,2977,3040,2272,2272,2208,2208,2208,2209,2977,2272,2273,2977,3042,2336,2336,2272,2272,3040,2272,2272,2208,2208,2208,2209,2977,2272,2273,2977,2208,2209,2977,2272,2273,2977,3042,2336,2336,2272,2272,3040,2272,2272,2208,2208,2208,2144,2144,2144,3042,2336,2336,2272,2272,3040,2272,3042,2336,2336,2272,2272,3040,2272,2272,2208,3042,2336,2336,2272,2272,3040,3042,2336,2336,2272,2272,3040,2272,2272,2208,2208,2208,2272,2272,2208,2208,2208,2208,2209,2977,2272,2273,2977,3042,2336,2336,2273,3040,2976,2977,2336,2337,2978,2979,3104,3105,3106,3040,3104,3040,3040,2208,2209,3040,2976,2977,2336,2337,2978,3040,2976,2977,2336,2337,2978,2979,3104,3105,3106,3040,3104,3040,3040,2208,2209,2209,3040,2976,2977,2336,2337,2978,3040,2976,2977,2209,3040,2976,2977,2336,2337,2978,3040,2976,2977,2336,2337,2978,2979,3104,3105,3106,3040,2977,2336,2337,2978,3040,2976,2977,2336,2337,2978,2340,2341,2343,1962,1963,1385,2481,0,0,0,0,0,0,0,0,0,0,0,0,0,0,0,0,0,0,0,0,0,0,0,0,0,0,0,0,0,0,0,0,0,0,0,0,0,0,0,0,0,0,0,0,0,0,0,0,0,0,0,0,0,0,0,0,0,0,0,0,0,0,0,0,0,0,0,0,0,0,0,0,0,0,0,2140,2141,2142,2143,2208,2208,2208,2209,2209,2209,2978,2208,2209,2336,3040,2208,2208,2208,2209,2209,2208,2336,2272,2273,3040,2976,2208,2336,2272,2273,3040,2208,2336,2272,2273,3040,2976,2977,2979,3041,3042,3043,3040,2208,2208,2209,2336,2336,3041,3042,3043,3040,2208,2208,2209,2336,2336,2336,2272,2208,2209,2976,2208,2209,2977,2336,2336,2336,2272,2208,2209,2976,2208,2209,2336,2336,2336,2272,2208,2209,2976,2208,2209,2977,2209,2337,3041,2272,2208,2208,2272,2272,2208,2208,2209,2337,3041,2272,2468,2469,3106,3104,2272,2273,2337,2977,2340,2341,2151,2532,2533,2152,2153,2217,2342,2278,2026,2027,0,0,0,0,0,0,0,0,0,0,0,0,0,0,0,0,0,0,0,0,0,0,0,0,0,0,0,0,0,0,0,0,0,0,0,0,0,0,0,0,0,0,0,0,0,0,0,0,0,0,0,0,0,0,0,0,0,0,0,0,0,0,2012,2013,2014,2015,3043,2976,2977,2978,2979,2976,3040,2208,2208,2208,2209,2209,2209,2978,2977,2978,2979,2976,3040,2272,2208,2209,2208,2336,2272,2273,3040,2976,2977,2272,2273,3040,2976,2977,2273,3043,2341,2345,2345,2154,2155,1385,2417,1385,2481,2481,0,0,0,0,0,0,0,0,
2015,2340,2340,2340,2340,2340,2340,2340,2340,2340,2340,2340,2340,2340,2340,2340,2340,2340,2340,2340,2404,2404,2404,2404,2404,2404,2404,2404,2404,2404,2404,2404,2404,2404,2404,2404,2404,2404,2404,2404,2404,2404,2340,2340,2340,2340,2340,2340,2340,2340,2340,2340,2340,2340,2340,2340,2340,2340,2340,2340,2340,2340,2340,2340,2340,2340,2341,2214,2026,2027,1385,1386,1387,2160,2160,2160,0,0,0,0,0,0,0,0,0,0,0,0,0,0,0,0,0,0,0,2012,2013,2014,2015,2336,2336,2272,2272,2272,2208,2208,2209,2337,3041,3042,2336,2336,2272,2272,2272,2208,2208,2209,2337,3041,2208,2208,2209,2336,2336,3042,2336,2336,2272,2272,2272,2208,2208,2209,2337,3041,2272,2208,2208,2209,2337,3041,2208,2208,2209,2336,2336,3042,2336,2336,2272,2272,2272,2208,2208,2208,2208,2208,2209,2336,2336,3042,2336,2208,2208,2209,2336,2336,3042,2336,2336,2272,2208,2208,2209,2336,2336,3042,2208,2208,2209,2336,2336,3042,2336,2336,2272,2272,2272,2336,2336,2272,2272,2272,2272,2208,2208,2209,2337,3041,2208,2208,2209,2337,2979,3040,3041,3042,3041,3042,3040,2208,2208,2208,2209,2209,2209,2978,2208,2209,2979,3040,3041,3042,3041,3042,2979,3040,3041,3042,3041,3042,3040,2208,2208,2208,2209,2209,2209,2978,2208,2209,2209,2979,3040,3041,3042,3041,3042,2979,3040,3041,2209,2979,3040,3041,3042,3041,3042,2979,3040,3041,3042,3041,3042,3040,2208,2208,2208,2209,3041,3042,3041,3042,2979,3040,3041,3042,3041,3042,2404,2405,2150,2026,2027,1385,2545,0,0,0,0,0,0,0,0,0,0,0,0,0,0,0,0,0,0,0,0,0,0,0,0,0,0,0,0,0,0,0,0,0,0,0,0,0,0,0,0,0,0,0,0,0,0,0,0,0,0,0,0,0,0,0,0,0,0,0,0,0,0,0,0,0,0,0,0,0,0,0,0,0,0,0,1948,1949,1950,1951,2272,2272,2208,2208,2208,2209,2977,2272,2273,2977,3040,2272,2272,2208,2208,2208,2272,2273,2336,2337,2979,3040,2272,2273,2336,2337,2979,2272,2273,2336,2337,2979,3040,3041,2209,3043,2979,2976,2208,2209,2208,2208,2208,2209,3043,2979,2976,2208,2209,2208,2208,2208,2209,2208,2336,2272,2273,3040,2272,2208,2208,2208,2209,2208,2336,2272,2273,3040,2272,2208,2208,2209,2208,2336,2272,2273,3040,2272,2208,2208,2209,2976,3040,2336,2272,2208,2336,2336,2272,2208,2209,2976,3040,2336,2532,2533,3106,3104,2336,2337,3040,3041,2404,2405,2151,2150,2151,2152,2153,2281,2281,2342,2090,6071,6072,6073,6074,6075,6076,0,0,0,0,0,0,0,0,0,0,0,0,0,0,0,0,0,0,0,0,0,0,0,0,0,0,0,0,0,0,0,0,0,0,0,0,0,0,0,0,0,0,0,0,0,0,0,0,0,0,0,0,0,0,0,0,0,2076,2077,2078,2079,2209,3040,3041,3042,2976,3040,3040,2272,2272,2208,2208,2208,2209,2977,3041,3042,2976,3040,3040,2336,2208,2208,2272,2273,2336,2337,2979,3040,3041,2336,2337,2979,3040,3041,2337,2978,2340,2341,2343,1962,1963,1385,2481,1385,2545,2545,0,0,0,0,0,0,0,0,
2079,2404,2404,2404,2404,2404,2404,2404,2404,2404,2404,2404,2404,2404,2404,2404,2404,2404,2404,2404,2468,2468,2468,2468,2468,2468,2468,2468,2468,2468,2468,2468,2468,2468,2468,2468,2468,2468,2468,2468,2468,2468,2404,2404,2404,2404,2404,2404,2404,2404,2404,2404,2404,2404,2404,2404,2404,2404,2404,2404,2404,2404,2404,2404,2404,2404,2405,2278,2090,2091,1385,1386,1387,2224,2224,2224,0,0,0,0,0,0,0,0,0,0,0,0,0,0,0,0,0,0,0,2076,2077,2078,2079,2208,2209,2336,2336,2336,2272,2208,2209,2976,3040,2208,2208,2209,2336,2336,2336,2272,2208,2209,2976,3040,2209,2208,2208,2208,2209,2208,2208,2209,2336,2336,2336,2272,2208,2209,2976,3040,2336,2272,2208,2209,2976,3040,2209,2208,2208,2208,2209,2208,2208,2209,2336,2336,2336,2272,2272,2272,2209,2208,2208,2208,2209,2208,2208,2209,2208,2208,2208,2209,2208,2208,2209,2336,2209,2208,2208,2208,2209,2208,2209,2208,2208,2208,2209,2208,2208,2209,2336,2336,2336,2208,2209,2336,2336,2336,2336,2272,2208,2209,2976,3040,2209,2208,2208,2209,2209,2209,2978,2208,2209,2336,3040,2272,2272,2208,2208,3040,2208,2208,2208,2209,2209,2209,2978,2208,2209,2336,2209,2209,2978,2208,2209,2336,3040,2272,2272,2208,2208,3040,2208,2208,2208,2209,2209,2209,2209,2978,2208,2209,2336,2209,2209,2978,2209,2209,2209,2978,2208,2209,2336,2209,2209,2978,2208,2209,2336,3040,2272,2272,2208,2208,2978,2208,2209,2336,2209,2209,2978,2208,2209,2336,2468,2469,2214,1962,1963,1385,2609,0,0,0,0,0,0,0,0,0,0,0,0,0,0,0,0,0,0,0,0,0,0,0,0,0,0,0,0,0,0,0,0,0,0,0,0,0,0,0,0,0,0,0,0,0,0,0,0,0,0,0,0,0,0,0,0,0,0,0,0,0,0,0,0,0,0,0,0,0,0,0,0,0,0,0,2012,2013,2014,2015,2336,2336,2272,2272,2272,2208,2208,2209,2337,3041,3042,2336,2336,2272,2272,2272,2208,2208,2208,2209,2209,2209,2208,2208,2208,2209,2209,2208,2208,2208,2209,2209,2209,2978,2208,3043,3043,2976,2272,2273,2272,2272,2208,2208,3043,3043,2976,2272,2273,2272,2272,2208,2208,2272,2273,2336,2337,2979,2336,2272,2208,2208,2208,2272,2273,2336,2337,2979,2336,2272,2208,2208,2272,2273,2336,2337,2979,2336,2272,2208,2272,2273,3043,2976,3040,3040,2209,2976,3040,3040,2272,2273,3043,2976,3042,3104,3105,3104,3105,3104,3104,3105,2468,2469,2152,2150,2340,2341,2340,2341,2345,2345,2154,2155,6136,6137,6138,6139,6140,0,0,0,0,0,0,0,0,0,0,0,0,0,0,0,0,0,0,0,0,0,0,0,0,0,0,0,0,0,0,0,0,0,0,0,0,0,0,0,0,0,0,0,0,0,0,0,0,0,0,0,0,0,0,0,0,0,2140,2141,2142,2143,2209,2976,2977,2978,3040,3041,3042,2336,2336,2272,2272,2272,2208,2208,2977,2978,3040,3041,3042,2208,2336,3040,2208,2208,2208,2209,2209,2209,2978,2208,2209,2209,2209,2978,3041,3042,2404,2405,2150,2026,2027,1385,2545,1385,2609,2609,0,0,0,0,0,0,0,0,
2143,2468,2468,2468,2468,2468,2468,2468,2468,2468,2468,2468,2468,2468,2468,2468,2468,2468,2468,2468,2532,2532,2532,2532,2532,2532,2532,2532,2532,2532,2532,2532,2532,2532,2532,2532,2532,2532,2532,2532,2532,2532,2468,2468,2468,2468,2468,2468,2468,2468,2468,2468,2468,2468,2468,2468,2468,2468,2468,2468,2468,2468,2468,2468,2468,2468,2469,2342,2154,2155,1385,1386,1387,2288,2288,2288,0,0,0,0,0,0,0,0,0,0,0,0,0,0,0,0,0,0,0,2140,2141,2142,2143,2208,2208,2208,2209,2208,2336,2272,2273,3040,2976,2209,2208,2208,2208,2209,2208,2336,2272,2273,3040,2976,2273,2272,2272,2208,2208,2209,2208,2208,2208,2209,2208,2336,2272,2273,3040,2976,2272,2208,2208,2209,2337,3041,2208,2208,2209,2336,2336,3042,2336,2336,2272,2272,2272,2336,2336,2336,2208,2208,2209,2336,2336,3042,2336,2208,2208,2209,2336,2336,3042,2336,2336,2272,2208,2208,2209,2336,2336,3042,2208,2208,2209,2336,2336,3042,2336,2336,2272,2272,2272,2336,2336,2272,2272,2209,2208,2336,2272,2273,3040,2976,2273,2272,2272,2208,2208,2209,2977,2272,2273,2977,3042,2336,2336,2272,2272,3040,2272,2272,2208,2208,2208,2209,2977,2272,2273,2977,2208,2209,2977,2272,2273,2977,3042,2336,2336,2272,2272,3040,2272,2272,2208,2208,2208,2208,2209,2977,2272,2273,2977,2208,2209,2977,2208,2208,2209,2977,2272,2273,2977,2208,2209,2977,2272,2273,2977,3042,2336,2336,2272,2272,2977,2272,2273,2977,2208,2209,2977,2272,2273,2977,2532,2533,2278,2026,2027,1385,2673,0,0,0,0,0,0,0,0,0,0,0,0,0,0,0,0,0,0,0,0,0,0,0,0,0,0,0,0,0,0,0,0,0,0,0,0,0,0,0,0,0,0,0,0,0,0,0,0,0,0,0,0,0,0,0,0,0,0,0,0,0,0,0,0,0,0,0,0,0,0,0,0,0,0,0,2076,2077,2078,2079,2208,2209,2336,2336,2336,2272,2208,2209,2976,3040,2208,2208,2209,2336,2336,2336,2272,2272,2208,2208,2208,2209,2272,2272,2208,2208,2208,2272,2272,2208,2208,2208,2209,2977,2272,2208,2209,2209,2209,2978,2208,2209,2336,3040,2208,2209,2209,2209,2978,2208,2209,2336,3040,2208,2208,2208,2209,2209,2208,2336,2272,2336,3040,2208,2208,2208,2209,2209,2208,2336,2336,3040,2208,2208,2208,2209,2209,2208,2336,2272,2336,2337,2978,3040,2976,2977,2209,3040,2976,2977,2336,2337,2978,3040,3106,3040,2976,2340,2341,3106,3106,3042,2532,2533,2152,2214,2404,2405,2404,2340,2341,2343,1962,1963,6200,6201,6202,6203,6204,0,0,0,0,0,0,0,0,0,0,0,0,0,0,0,0,0,0,0,0,0,0,0,0,0,0,0,0,0,0,0,0,0,0,0,0,0,0,0,0,0,0,0,0,0,0,0,0,0,0,0,0,0,0,0,0,0,1948,1949,1950,1951,2208,2209,3041,3042,3043,3040,2208,2208,2209,2336,2336,2336,2272,2208,3041,3042,3043,3040,2208,2208,2977,3040,2272,2272,2208,2208,2208,2209,2977,2208,2208,2208,2209,2977,2209,2336,2468,2469,2214,1962,1963,1385,2609,1385,2673,2673,0,0,0,0,0,0,0,0
</data>
 </layer>
 <objectgroup id="2" name="Camada de Objetos 1">
  <properties>
   <property name="bodyType" value="static"/>
  </properties>
  <object id="2" x="12.6667" y="241" width="1053.5" height="82.5">
   <properties>
    <property name="bodyType" value="static"/>
   </properties>
  </object>
  <object id="22" x="1079.67" y="269" width="20.3333" height="243">
   <properties>
    <property name="bodyType" value="static"/>
   </properties>
  </object>
  <object id="26" x="1571.24" y="270.551" width="20.3333" height="243">
   <properties>
    <property name="bodyType" value="static"/>
   </properties>
  </object>
  <object id="30" x="1609.5" y="242.75" width="532.917" height="11.5">
   <properties>
    <property name="bodyType" value="static"/>
   </properties>
  </object>
  <object id="31" x="2138.25" y="261.127" width="18" height="109.451" rotation="-55">
   <properties>
    <property name="bodyType" value="static"/>
   </properties>
  </object>
  <object id="32" x="2273" y="179.75" width="63.5" height="29.25">
   <properties>
    <property name="bodyType" value="static"/>
   </properties>
  </object>
  <object id="33" x="2175.5" y="114" width="66" height="28">
   <properties>
    <property name="bodyType" value="static"/>
   </properties>
  </object>
  <object id="35" x="2239.09" y="308.364" width="882.242" height="32.9697">
   <properties>
    <property name="bodyType" value="static"/>
   </properties>
  </object>
  <object id="36" x="3124.67" y="153.333" width="48" height="151.333">
   <properties>
    <property name="bodyType" value="static"/>
   </properties>
  </object>
  <object id="37" x="3136.55" y="146.545" width="31.6364" height="5.81818">
   <properties>
    <property name="bodyType" value="static"/>
   </properties>
  </object>
  <object id="38" x="3163.97" y="169.274" width="18" height="293.122" rotation="-58">
   <properties>
    <property name="bodyType" value="static"/>
   </properties>
  </object>
  <object id="39" x="3422.55" y="308.848" width="1072.24" height="32.9697">
   <properties>
    <property name="bodyType" value="static"/>
   </properties>
  </object>
  <object id="40" x="4484.5" y="324.189" width="18" height="54.7288" rotation="-58">
   <properties>
    <property name="bodyType" value="static"/>
   </properties>
  </object>
  <object id="41" x="4521.67" y="340.167" width="18" height="169.5">
   <properties>
    <property name="bodyType" value="static"/>
   </properties>
  </object>
  <object id="42" x="4718.55" y="261.818" width="67.8182" height="22">
   <properties>
    <property name="bodyType" value="static"/>
   </properties>
  </object>
  <object id="43" x="5038.73" y="259.818" width="68.1818" height="23.8182">
   <properties>
    <property name="bodyType" value="static"/>
   </properties>
  </object>
  <object id="44" x="5356.25" y="261.75" width="70" height="23.25">
   <properties>
    <property name="bodyType" value="static"/>
   </properties>
  </object>
  <object id="45" x="5646.88" y="258.5" width="66" height="29">
   <properties>
    <property name="bodyType" value="static"/>
   </properties>
  </object>
  <object id="46" x="5844" y="291.5" width="14" height="221.5">
   <properties>
    <property name="bodyType" value="static"/>
   </properties>
  </object>
  <object id="47" x="5889.5" y="260.5" width="286.5" height="21">
   <properties>
    <property name="bodyType" value="static"/>
   </properties>
  </object>
  <object id="48" x="1067.33" y="244.333" width="35.6667" height="8" rotation="35">
   <properties>
    <property name="bodyType" value="static"/>
   </properties>
  </object>
  <object id="49" x="1579.17" y="267" width="35.6667" height="8" rotation="-35">
   <properties>
    <property name="bodyType" value="static"/>
   </properties>
  </object>
  <object id="50" x="5847.08" y="285.353" width="46.4256" height="8" rotation="-30">
   <properties>
    <property name="bodyType" value="static"/>
   </properties>
  </object>
  <object id="51" x="3743" y="197.25" width="197" height="22">
   <properties>
    <property name="bodyType" value="static"/>
   </properties>
  </object>
  <object id="52" x="3764.5" y="220.25" width="175.25" height="15">
   <properties>
    <property name="bodyType" value="static"/>
   </properties>
  </object>
  <object id="53" x="4078.17" y="196.333" width="197" height="22">
   <properties>
    <property name="bodyType" value="static"/>
   </properties>
  </object>
  <object id="54" x="4099.67" y="219.333" width="175.25" height="15">
   <properties>
    <property name="bodyType" value="static"/>
   </properties>
  </object>
  <object id="55" x="6169.48" y="279.591" width="18" height="174.403" rotation="-58">
   <properties>
    <property name="bodyType" value="static"/>
   </properties>
  </object>
  <object id="56" x="6327.75" y="357.5" width="1286.5" height="21">
   <properties>
    <property name="bodyType" value="static"/>
   </properties>
  </object>
  <object id="57" x="6419.67" y="288.333" width="24.3333" height="68.3333">
   <properties>
    <property name="bodyType" value="static"/>
   </properties>
  </object>
  <object id="58" x="6578.33" y="289.333" width="28.3333" height="67.6667">
   <properties>
    <property name="bodyType" value="static"/>
   </properties>
  </object>
  <object id="59" x="6738" y="289.333" width="28.3333" height="66.3333">
   <properties>
    <property name="bodyType" value="static"/>
   </properties>
  </object>
  <object id="60" x="6897.33" y="289.333" width="30.3333" height="66.3333">
   <properties>
    <property name="bodyType" value="static"/>
   </properties>
  </object>
  <object id="61" x="7058" y="289.333" width="28.6667" height="67.6667">
   <properties>
    <property name="bodyType" value="static"/>
   </properties>
  </object>
  <object id="62" x="7606.66" y="373.005" width="18" height="54.6923" rotation="-58">
   <properties>
    <property name="bodyType" value="static"/>
   </properties>
  </object>
  <object id="63" x="7642.67" y="390" width="20" height="120.333">
   <properties>
    <property name="bodyType" value="static"/>
   </properties>
  </object>
  <object id="64" x="8726.83" y="385.447" width="20" height="126.333">
   <properties>
    <property name="bodyType" value="static"/>
   </properties>
  </object>
  <object id="65" x="8729.34" y="382.945" width="49.0424" height="8" rotation="-30">
   <properties>
    <property name="bodyType" value="static"/>
   </properties>
  </object>
  <object id="66" x="8775.33" y="360.667" width="271.667" height="9.66667">
   <properties>
    <property name="bodyType" value="static"/>
   </properties>
  </object>
  <object id="67" x="9046.67" y="244" width="22.6667" height="117.167">
   <properties>
    <property name="bodyType" value="static"/>
   </properties>
  </object>
  <object id="68" x="9186" y="148" width="231.333" height="39.3333">
   <properties>
    <property name="bodyType" value="static"/>
   </properties>
  </object>
  <object id="69" x="9049.71" y="240.611" width="161.933" height="8" rotation="-33">
   <properties>
    <property name="bodyType" value="static"/>
   </properties>
  </object>
 </objectgroup>
</map>
